!!!!SEGMENT: pl-wn--mus-iii-65-947-cim--030_sowinski-wojciech--swiety-wojciech-meczennik-no-28-chor-final.krn
!!!cenid: 18xx:3623
!!!COM: Sowiński, Wojciech
!!!COM-rismID: pe30008543
!!!CDT: ~1803-1880/03/05
!!!CNT:
!!!GTL: Święty Wojciech męczennik
!!!OTL: No. 28. Chór – finał
!!!PDT: 1877
!!!AGN:
!!!SMS-siglum: PL-Wn
!!!SMS-shelfmark: Mus.III.65.947 Cim.
!!!SMS-shelfwork: 030 G
!!!SMS-variant:
!!!SMS-altvar:
!!!NIFC-rismSourceID:
!!!NIFC-islandoraID:
!!!URL-pdf-islandora:
!!!URL-scan: https://polona.pl/item/swiety-wojciech-meczennik-oratorjo-w-trzech-czesciach-dzielo-66-spiew-z-fortepianem,MTkzODI1Mzc/242/#item @EN{Scan on Polona} @PL{Skany w portalu Polona}
!!!ONB-nifc: UWAGA: oratorium zawiera w źródle 28 numerów podzielonych na 30 plików (rozdzielenie w No. 6 - osobno Recitativo oraz Aria matki i No. 10 - osobno Recitativo, arja i chór oraz Sen). Polecam widok miniatur na Polonie. Uwaga co do obsady: prosimy umieszczać tylko partie występujące w danym numerze (nie całą obsadę oratorium)
!!!AIN: 1 alto 1 bass 1 piano 1 soprn 1 tenor
!!!key: D
**kern	**kern	**dynam	**kern	**text	**dynam	**kern	**text	**dynam	**kern	**text	**dynam	**kern	**text	**dynam
*group2	*group2	*	*group1	*	*	*group1	*	*	*group1	*	*	*group1	*	*
*part5	*part5	*part5	*part4	*part4	*part4	*part3	*part3	*part3	*part2	*part2	*part2	*part1	*part1	*part1
*staff6	*staff5	*	*staff4	*staff4	*	*staff3	*staff3	*	*staff2	*staff2	*	*staff1	*staff1	*
*I"Piano	*I"Piano	*	*I"BAS.	*	*	*I"TENOR.	*	*	*I"2.SOPRAN. ALT.	*	*	*I"1. SOPRAN.	*	*
*Ipiano	*Ipiano	*	*Ibass	*	*	*Itenor	*	*	*Ialto	*	*	*Isoprn	*	*
*ICklav	*ICklav	*	*ICvox	*	*	*ICvox	*	*	*ICvox	*	*	*ICvox	*	*
*IGacmp	*IGacmp	*	*	*	*	*	*	*	*	*	*	*	*	*
*clefF4	*clefG2	*	*clefF4	*	*	*clefG2	*	*	*clefG2	*	*	*clefG2	*	*
*	*	*	*	*	*	*ITrd8c12	*	*	*	*	*	*	*	*
*k[f#c#]	*k[f#c#]	*	*k[f#c#]	*	*	*k[f#c#]	*	*	*k[f#c#]	*	*	*k[f#c#]	*	*
*D:	*D:	*	*D:	*	*	*D:	*	*	*D:	*	*	*D:	*	*
*M4/4	*M4/4	*	*M4/4	*	*	*M4/4	*	*	*M4/4	*	*	*M4/4	*	*
*met(c)	*met(c)	*	*met(c)	*	*	*met(c)	*	*	*met(c)	*	*	*met(c)	*	*
=1	=1	=1	=1	=1	=1	=1	=1	=1	=1	=1	=1	=1	=1	=1
!	!LO:TX:a:t=Allo.energico.	!	!	!	!	!	!	!	!	!	!	!	!	!
!	!	!	!	!	!	!LO:TX:t=P:problem=partia zapisana w kluczu bez przenośnika ktawowego	!	!	!	!	!	!	!	!
12AA\L	12A</L	f	1ryy	.	.	1ryy	.	.	1ryy	.	.	1ryy	.	.
12GG#X\	12G#X</	.	.	.	.	.	.	.	.	.	.	.	.	.
12AA\J	12A</J	.	.	.	.	.	.	.	.	.	.	.	.	.
12BB\L	12B</L	.	.	.	.	.	.	.	.	.	.	.	.	.
12C#\	12c#</	.	.	.	.	.	.	.	.	.	.	.	.	.
12D\J	12d</J	.	.	.	.	.	.	.	.	.	.	.	.	.
4E\	4e^>/	.	.	.	.	.	.	.	.	.	.	.	.	.
8.F#\L	8.f#^>/L	.	.	.	.	.	.	.	.	.	.	.	.	.
16D\Jk	16d/Jk	.	.	.	.	.	.	.	.	.	.	.	.	.
=2	=2	=2	=2	=2	=2	=2	=2	=2	=2	=2	=2	=2	=2	=2
4F#^>\	4f#^>/	.	1ryy	.	.	1ryy	.	.	1ryy	.	.	1ryy	.	.
!	!	!LO:HP:b:t=cres	!	!	!	!	!	!	!	!	!	!	!	!
8.G\L	8.g/L	<	.	.	.	.	.	.	.	.	.	.	.	.
16E\Jk	16e/Jk	.	.	.	.	.	.	.	.	.	.	.	.	.
4G^>\	4g^>/	.	.	.	.	.	.	.	.	.	.	.	.	.
8.A\L	8.a/L	.	.	.	.	.	.	.	.	.	.	.	.	.
16F#\Jk	16f#/Jk	.	.	.	.	.	.	.	.	.	.	.	.	.
=3	=3	=3	=3	=3	=3	=3	=3	=3	=3	=3	=3	=3	=3	=3
4A^>\	4a^>/	.	1ryy	.	.	1ryy	.	.	1ryy	.	.	1ryy	.	.
8.B\L	8.b/L	.	.	.	.	.	.	.	.	.	.	.	.	.
16G\Jk	16g/Jk	.	.	.	.	.	.	.	.	.	.	.	.	.
4B^>\	4b^>/	.	.	.	.	.	.	.	.	.	.	.	.	.
8.c#\L	8.cc#/L	.	.	.	.	.	.	.	.	.	.	.	.	.
16A\Jk	16a/Jk	.	.	.	.	.	.	.	.	.	.	.	.	.
=4	=4	=4	=4	=4	=4	=4	=4	=4	=4	=4	=4	=4	=4	=4
4e 4E\	4ee\	.	1ryy	.	.	1ryy	.	.	1ryy	.	.	1ryy	.	.
*	*Xtuplet	*	*	*	*	*	*	*	*	*	*	*	*	*
4d 4D^>\	12eeL 12g 12e\	.	.	.	.	.	.	.	.	.	.	.	.	.
.	12ee 12g 12e\	.	.	.	.	.	.	.	.	.	.	.	.	.
.	12eeJ 12g 12e\	.	.	.	.	.	.	.	.	.	.	.	.	.
4c# 4C#^>\	4ee 4g 4e\	.	.	.	.	.	.	.	.	.	.	.	.	.
4cn 4Cn^>\	12eeL 12g 12e\	.	.	.	.	.	.	.	.	.	.	.	.	.
.	12ee 12g 12e\	.	.	.	.	.	.	.	.	.	.	.	.	.
.	12eeJ 12g 12e\	.	.	.	.	.	.	.	.	.	.	.	.	.
=5	=5	=5	=5	=5	=5	=5	=5	=5	=5	=5	=5	=5	=5	=5
4B 4BB\	4ee 4g 4e\	.	1ryy	.	.	1ryy	.	.	1ryy	.	.	1ryy	.	.
4B-X 4BB-X\	12eeL 12g 12e\	.	.	.	.	.	.	.	.	.	.	.	.	.
.	12ee 12g 12e\	.	.	.	.	.	.	.	.	.	.	.	.	.
.	12eeJ 12g 12e\	.	.	.	.	.	.	.	.	.	.	.	.	.
8.AL 8.AA\	8.eeL 8.g 8.e\	.	.	.	.	.	.	.	.	.	.	.	.	.
(16C#K 16AA\	(16bbK 16gg\	.	.	.	.	.	.	.	.	.	.	.	.	.
8.D 8.BBn\)	8.aa 8.ff#\)	.	.	.	.	.	.	.	.	.	.	.	.	.
(16EJk 16C#\	(16ggJk 16ee\	.	.	.	.	.	.	.	.	.	.	.	.	.
!!LO:LB:g=original
=6	=6	=6	=6	=6	=6	=6	=6	=6	=6	=6	=6	=6	=6	=6
4F# 4D\)	4ff# 4dd\)	.	1r	.	.	1r	.	.	1r	.	.	1r	.	.
8.dL 8.D\	4ff# 4dd 4f#\	.	.	.	.	.	.	.	.	.	.	.	.	.
16c#Jk 16C#\	.	.	.	.	.	.	.	.	.	.	.	.	.	.
4B 4BB\	4.gg 4.dd 4.g\	sf	.	.	.	.	.	.	.	.	.	.	.	.
4d 4D\	.	.	.	.	.	.	.	.	.	.	.	.	.	.
.	8ff# 8dd 8f#\	.	.	.	.	.	.	.	.	.	.	.	.	.
=7	=7	=7	=7	=7	=7	=7	=7	=7	=7	=7	=7	=7	=7	=7
*	*^	*	*	*	*	*	*	*	*	*	*	*	*	*
4A 4AA\	4ee 4dd 4e\	4ryy	.	1r	.	.	1r	.	.	1r	.	.	1r	.	.
8.AL 8.AA\	8.eeL 8.cc#/	4e\	.	.	.	.	.	.	.	.	.	.	.	.	.
16GJk 16GG\	16b/Jk	.	.	.	.	.	.	.	.	.	.	.	.	.	.
4F# 4FF#\	4.ff# 4.a#X 4.f#\	2ryy	sf	.	.	.	.	.	.	.	.	.	.	.	.
*Xtuplet	*	*	*	*	*	*	*	*	*	*	*	*	*	*	*
12F#\L	.	.	.	.	.	.	.	.	.	.	.	.	.	.	.
12G#X\	.	.	.	.	.	.	.	.	.	.	.	.	.	.	.
.	8ee 8cc# 8f#\	.	.	.	.	.	.	.	.	.	.	.	.	.	.
12A#X\J	.	.	.	.	.	.	.	.	.	.	.	.	.	.	.
*	*v	*v	*	*	*	*	*	*	*	*	*	*	*	*	*
=8	=8	=8	=8	=8	=8	=8	=8	=8	=8	=8	=8	=8	=8	=8
4B 4BB\	4dd 4b 4f#\	.	1r	.	.	1r	.	.	1r	.	.	1r	.	.
4B 4BB\	12ddL 12b 12f#\	.	.	.	.	.	.	.	.	.	.	.	.	.
.	12dd 12b 12f#\	.	.	.	.	.	.	.	.	.	.	.	.	.
.	12ddJ 12b 12f#\	.	.	.	.	.	.	.	.	.	.	.	.	.
8.EL 8.EE/	8.ggL 8.b^>\	.	.	.	.	.	.	.	.	.	.	.	.	.
16F#K 16FF#/	16ff#K 16a\	.	.	.	.	.	.	.	.	.	.	.	.	.
8.G 8.GG/	8.ee 8.g\	.	.	.	.	.	.	.	.	.	.	.	.	.
16G#XJk 16GG#X/	16ddJk 16f#\	.	.	.	.	.	.	.	.	.	.	.	.	.
=9	=9	=9	=9	=9	=9	=9	=9	=9	=9	=9	=9	=9	=9	=9
4A 4AA\	4ff# 4dd 4a^>\	.	1r	.	.	1r	.	.	1r	.	.	1r	.	.
4r	4r	.	.	.	.	.	.	.	.	.	.	.	.	.
4A 4AA\	4ee 4cc# 4a^>\	.	.	.	.	.	.	.	.	.	.	.	.	.
4r	4r	.	.	.	.	.	.	.	.	.	.	.	.	.
=10	=10	=10	=10	=10	=10	=10	=10	=10	=10	=10	=10	=10	=10	=10
4A 4D\	4dd 4f#/	f	(4D\	Nie-	.	(4d\	Nie-	.	(4f#/	Nie-	.	(4dd\	Nie-	.
!	!LO:TX:b:t=marcato.	!	!	!	!	!	!	!	!	!	!	!	!	!
8.AL 8.AA\	8.eeL 8.e/	.	8.A\)	.	.	8.c#\)	.	.	8.e/)	.	.	8.ee\)	.	.
16AJk 16AA\	16aJk 16e/	.	16A\	-chaj	.	16A/	-chaj	.	16e/	-chaj	.	16cc#\	-chaj	.
2A 2AA\	12aL 12c#/	.	4.A\	zagrz-	.	4.c#\	zagrz-	.	4.a/	zagrz-	.	4.a/	zagrz-	.
.	12a'/	.	.	.	.	.	.	.	.	.	.	.	.	.
.	12b'/J	.	.	.	.	.	.	.	.	.	.	.	.	.
.	12cc#'\L	.	.	.	.	.	.	.	.	.	.	.	.	.
.	12dd'\	.	.	.	.	.	.	.	.	.	.	.	.	.
.	.	.	8A\	-mią	.	8A/	-mią	.	8a/	-mią	.	8a/	-mią	.
.	12ee'\J	.	.	.	.	.	.	.	.	.	.	.	.	.
!!LO:LB:g=original
=11	=11	=11	=11	=11	=11	=11	=11	=11	=11	=11	=11	=11	=11	=11
4A 4D\	4dd 4f#\	.	4D\	po-	.	4d\	po-	.	4f#/	po-	.	4dd\	po-	.
8.AL 8.AA\	8.eeL 8.e/	.	8.AA/	-nad	.	8.c#\	-nad	.	8.e/	-nad	.	8.ee\	-nad	.
16AJk 16AA\	16cc#Jk 16e/	.	16AA/	o-	.	16A/	o-	.	16e/	o-	.	16cc#\	o-	.
2A 2AA\	12a 12c#/	.	4AA/	-bło-	.	4A/	-bło-	.	4e/	-bło-	.	4a/	-bło-	.
.	12aa\L	.	.	.	.	.	.	.	.	.	.	.	.	.
.	12gg\J	.	.	.	.	.	.	.	.	.	.	.	.	.
.	12ee\L	.	4AA/	-ki	.	4A/	-ki	.	4e/	-ki	.	4a/	-ki	.
.	12cc#\	.	.	.	.	.	.	.	.	.	.	.	.	.
.	12a\J	.	.	.	.	.	.	.	.	.	.	.	.	.
=12	=12	=12	=12	=12	=12	=12	=12	=12	=12	=12	=12	=12	=12	=12
8.D\L	4dd 4f#/	.	(8.D\L	po	.	4d\	po-	.	4f#/	po-	.	4dd\	po-	.
16F#\K	.	.	16F#\Jk)	.	.	.	.	.	.	.	.	.	.	.
8.A\	8.eeL 8.e/	.	8.A\	nad	.	8.c#\	-nad	.	8.e/	-nad	.	8.ee\	-nad	.
16AJk 16AA\	16cc#/Jk	.	16A\	o-	.	16c#\	o-	.	16a/	o-	.	16cc#\	o-	.
4A 4AA^>\	2gg 2ee 2g\	sf	4A\	-bło-	.	4c#\	-bło-	.	4g/	-bło-	.	4gg\	-bło-	.
4A#X 4AA#X^>\	.	.	4A#X\	-ki	.	4c#\	-ki	.	4g/	-ki	.	4gg\	-ki	.
=13	=13	=13	=13	=13	=13	=13	=13	=13	=13	=13	=13	=13	=13	=13
8.BL 8.BB\	8.ggL 8.dd 8.g\	.	(8.B\L	pie-	.	4d\	pie-	.	(8.g/L	pie-	.	(8.gg\L	pie-	.
(16cnK 16A\	(16ff#K 16f#\	.	16An\Jk)	.	.	.	.	.	16f#/Jk)	.	.	16ff#\Jk)	.	.
8.B 8.G\)	8.ee 8.e\)	.	8.G\	-nia	.	8.B/	-nia	.	8.e/	-nia	.	8.ee\	-nia	.
(16AJk 16F#\	(16ddJk 16d\	.	16F#\	che-	.	16A/	che-	.	16d/	che-	.	16dd\	che-	.
4B 4G\)	4ee 4e\)	.	4G\	-ru-	.	2B/	-ru-	.	4e/	-ru-	.	4ee\	-ru-	.
4B 4G#X^>\	4dd 4b 4fn\	.	4G#X\	-bów	.	.	.	.	4fn/	-bów	.	4dd\	-bów	.
=14	=14	=14	=14	=14	=14	=14	=14	=14	=14	=14	=14	=14	=14	=14
4A^>\	4cc# 4a 4e/	.	4A\	lu-	.	4A\	-bów	.	4e/	lu-	.	4cc#\	lu-	.
4E^>\	4b 4g#X 4e/	.	4E\	-tni	.	8.e\	lu-	.	4g#X/	-tni	.	4b\	-tni	.
.	.	.	.	.	.	16d\	-tni	.	.	.	.	.	.	.
*	*tuplet	*	*	*	*	*	*	*	*	*	*	*	*	*
4AA/	12aL 12e 12c#/	<	4C#/	brzęk,	.	4c#\	brzęk,	.	4a/	brzęk,	.	4a\	brzęk,	.
.	12a'/	.	.	.	.	.	.	.	.	.	.	.	.	.
.	12b'/J	.	.	.	.	.	.	.	.	.	.	.	.	.
*	*Xtuplet	*	*	*	*	*	*	*	*	*	*	*	*	*
4r	12cc#'\L	.	4r	.	.	4r	.	.	4r	.	.	4r	.	.
.	12dd'\	.	.	.	.	.	.	.	.	.	.	.	.	.
.	12ee'\J	[[	.	.	.	.	.	.	.	.	.	.	.	.
!!LO:PB:g=original
=15	=15	=15	=15	=15	=15	=15	=15	=15	=15	=15	=15	=15	=15	=15
4A 4D\	4dd 4f#/	f	4D\	nie-	.	4d\	nie-	.	4g/	nie-	.	4dd\	nie-	.
8.AL 8.AA\	8.eeL 8.e/	.	8.A\	-chaj	.	8.c#\	-chaj	.	8.e/	-chaj	.	8.ee\	-chaj	.
16AJk 16AA\	16cc#Jk 16e/	.	16A\	o-	.	16c#\	o-	.	16e/	o-	.	16cc#\	o-	.
2A 2AA\	12aL 12c#/	sf	4A\	-cu-	.	4c#\	-cu-	.	4e/	-cu-	.	4a/	-cu-	.
.	12a'/	.	.	.	.	.	.	.	.	.	.	.	.	.
.	12b'/J	.	.	.	.	.	.	.	.	.	.	.	.	.
.	12cc#'\L	.	4A\	-ci	.	4c#\	-ci	.	4e/	-ci	.	4a/	-ci	.
.	12dd'\	.	.	.	.	.	.	.	.	.	.	.	.	.
.	12ee'\J	.	.	.	.	.	.	.	.	.	.	.	.	.
=16	=16	=16	=16	=16	=16	=16	=16	=16	=16	=16	=16	=16	=16	=16
*^	*	*	*	*	*	*	*	*	*	*	*	*	*	*
4A/	12D/L	4dd 4f#/	<	(4D\	świę-	.	(4d\	świę-	.	(4f#/	świę-	.	(4dd\	świę-	.
.	12C#/	.	.	.	.	.	.	.	.	.	.	.	.	.	.
.	12D/J	.	.	.	.	.	.	.	.	.	.	.	.	.	.
4AA\	12E/L	8.eeL 8.e/	.	8.A\)	.	.	8.c#\)	.	.	8.a/)	.	.	8.ee\)	.	.
.	12F#/	.	.	.	.	.	.	.	.	.	.	.	.	.	.
.	12G/J	.	.	.	.	.	.	.	.	.	.	.	.	.	.
.	.	16cc#/Jk	.	16A\	-te	.	16e\	-te	.	16e/	-te	.	16cc#\	-te	.
4A 4AA\	4ryy	2gg 2ee 2cc# 2g\	[ sf	4A\	zwło-	.	4.e\	zwło-	.	4.cc#\	zwło-	.	4.gg\	zwło-	.
4A#X^> 4AA#X\	4ryy	.	.	4A#X\	-ki	.	.	.	.	.	.	.	.	.	.
.	.	.	.	.	.	.	8c#\	-ki	.	8e/	-ki	.	8gg\	-ki	.
*v	*v	*	*	*	*	*	*	*	*	*	*	*	*	*	*
=17	=17	=17	=17	=17	=17	=17	=17	=17	=17	=17	=17	=17	=17	=17
8.BL 8.BB\	8.ggL 8.dd 8.g\	.	8.B\	wie-	.	8.d\	wie-	.	8.g/	wie-	.	8.gg\	wie-	.
(16AnK 16AAn\	(16ff#K 16cc# 16f#\	.	16An\	-ku-	.	16d\	-ku-	.	16f#/	-ku-	.	16gg\	-ku-	.
8.G 8.GG\)	8.ee 8.b 8.e\)	.	(8.G\	-is-	.	(8.c#\	-i-	.	(8.e/	-is-	.	(8.ee\	-is-	.
(16F#Jk 16FF#\	(16ddJk 16a 16d\	.	16F#\)	-tej	.	16d\)	-stej	.	16d/)	-tej	.	16dd\)	-tej	.
4G 4GG\)	4ee 4b 4e\)	.	(4G\	chwa-	.	(4B\	chwa-	.	(4e/	chwa-	.	(4ee\	chwa-	.
4A 4AA\	4cc# 4a 4eT\	.	8.A\)	.	.	8.e\)	.	.	8.a/)	.	.	8.cc#\)	.	.
.	.	.	16A\	-ły	.	16e\	-ły	.	16g/	-ły	.	16cc#\	-ły	.
=18	=18	=18	=18	=18	=18	=18	=18	=18	=18	=18	=18	=18	=18	=18
4D 4DD/	8.ddL 8.f#/	.	2D\	dźwięk!	.	2d\	dźwięk!	.	2f#/	dźwięk!	.	2dd\	dźwięk!	.
.	16a/Jk	.	.	.	.	.	.	.	.	.	.	.	.	.
4r	12b\L	.	.	.	.	.	.	.	.	.	.	.	.	.
.	12cc#\	.	.	.	.	.	.	.	.	.	.	.	.	.
.	12dd\J	.	.	.	.	.	.	.	.	.	.	.	.	.
2r	12ee\L	.	4r	.	.	4r	.	.	4r	.	.	4r	.	.
.	12ff#\	.	.	.	.	.	.	.	.	.	.	.	.	.
.	12gg\J	.	.	.	.	.	.	.	.	.	.	.	.	.
.	12aa\L	.	8r	.	.	8r	.	.	8r	.	.	8r	.	.
.	12bb\	.	.	.	.	.	.	.	.	.	.	.	.	.
.	.	.	8A\	ten	.	8A/	ten	.	8a/	ten	.	8a/	ten	.
.	12ccc#\J	.	.	.	.	.	.	.	.	.	.	.	.	.
!!LO:LB:g=original
=19	=19	=19	=19	=19	=19	=19	=19	=19	=19	=19	=19	=19	=19	=19
4d 4D^>\	12ddd\L	f	2.D\	dźwięk!	.	2.d\	dźwięk!	.	2.f#/	dźwięk!	.	2.dd\	dźwięk!	.
.	12dd 12a 12f#\	.	.	.	.	.	.	.	.	.	.	.	.	.
.	12ddJ 12a 12f#\	.	.	.	.	.	.	.	.	.	.	.	.	.
4c#^>\	12ddL 12a 12f#\	.	.	.	.	.	.	.	.	.	.	.	.	.
.	12dd 12a 12f#\	.	.	.	.	.	.	.	.	.	.	.	.	.
.	12ddJ 12a 12f#\	.	.	.	.	.	.	.	.	.	.	.	.	.
4B^>\	12ddL 12a 12f#\	.	.	.	.	.	.	.	.	.	.	.	.	.
.	12dd 12a 12f#\	.	.	.	.	.	.	.	.	.	.	.	.	.
.	12ddJ 12a 12f#\	.	.	.	.	.	.	.	.	.	.	.	.	.
4A^>\	12ddL 12a 12f#\	.	8.A^>\	Ko-	.	8.A^>/	Ko-	.	8.f#^>/	Ko-	.	8.dd^>\	Ko-	.
.	12dd 12a 12f#\	.	.	.	.	.	.	.	.	.	.	.	.	.
.	12ddJ 12a 12f#\	.	.	.	.	.	.	.	.	.	.	.	.	.
.	.	.	16A\	-ły-	.	16A/	-ły-	.	16f#/	-ły-	.	16dd\	-ły-	.
=20	=20	=20	=20	=20	=20	=20	=20	=20	=20	=20	=20	=20	=20	=20
4G#X^>\	12eeL 12b 12e\	.	8G#X\	-sa-	.	8B\	-sa-	.	8e/	-sa-	.	8ee\	-sa-	.
.	12ee 12b 12e\	.	.	.	.	.	.	.	.	.	.	.	.	.
.	.	.	8E\	-ny	.	8B\	-ny	.	8e/	-ny	.	8ee\	-ny	.
.	12eeJ 12b 12e\	.	.	.	.	.	.	.	.	.	.	.	.	.
4E^>\	12ddL 12b 12e\	.	8.E\	przez	.	8.B\	przez	.	8.g#X/	przez	.	8.ee\	przez	.
.	12dd 12b 12e\	.	.	.	.	.	.	.	.	.	.	.	.	.
.	12ddJ 12b 12e\	.	.	.	.	.	.	.	.	.	.	.	.	.
.	.	.	16E\	a-	.	16B\	a-	.	16g#/	a-	.	16dd\	a-	.
4A^>\	12cc#L 12a 12e\	.	4A\	-nio-	.	4A/	-nio-	.	4a/	-nio-	.	4cc#\	-nio-	.
.	12a'\	<	.	.	.	.	.	.	.	.	.	.	.	.
.	12b'\J	.	.	.	.	.	.	.	.	.	.	.	.	.
4r	12cc#'\L	.	8A\	-ły	.	8A/	-ły	.	8a/	-ły	.	8cc#\	-ły	.
.	12dd'\	.	.	.	.	.	.	.	.	.	.	.	.	.
.	.	.	16r	.	.	16r	.	.	16r	.	.	16r	.	.
.	12ee'\J	[[	.	.	.	.	.	.	.	.	.	.	.	.
.	.	.	16A\	a-	.	16A/	a-	.	16a/	a-	.	16a/	a-	.
=21	=21	=21	=21	=21	=21	=21	=21	=21	=21	=21	=21	=21	=21	=21
4d 4D^>\	12ff#L 12dd 12a\	.	2D\	-nio-	.	2d\	-nio-	.	2a/	-nio-	.	2ff#\	-nio-	.
.	12ff# 12dd 12a\	.	.	.	.	.	.	.	.	.	.	.	.	.
.	12ff#J 12dd 12a\	.	.	.	.	.	.	.	.	.	.	.	.	.
4c#^>\	12ff#L 12dd 12a\	.	.	.	.	.	.	.	.	.	.	.	.	.
.	12ff# 12dd 12a\	.	.	.	.	.	.	.	.	.	.	.	.	.
.	12ff#J 12dd 12a\	.	.	.	.	.	.	.	.	.	.	.	.	.
4B^>\	12ff#L 12dd 12a\	.	4D\	-ły	.	4d\	-ły	.	4a/	-ły	.	4ff#\	-ły	.
.	12ff# 12dd 12a\	.	.	.	.	.	.	.	.	.	.	.	.	.
.	12ff#J 12dd 12a\	.	.	.	.	.	.	.	.	.	.	.	.	.
4A^>\	12ff#L 12dd 12a\	.	8.d\	rzu-	.	8.d\	rzu-	.	8.a/	rzu-	.	8.ff#\	rzu-	.
.	12ff# 12dd 12a\	.	.	.	.	.	.	.	.	.	.	.	.	.
.	12ff#J 12dd 12a\	.	.	.	.	.	.	.	.	.	.	.	.	.
.	.	.	16c#\	-caj	.	16d\	-caj	.	16a/	-caj	.	16ff#\	-caj	.
!!LO:LB:g=original
=22	=22	=22	=22	=22	=22	=22	=22	=22	=22	=22	=22	=22	=22	=22
4B^>\	12ggL 12dd 12g\	.	8B\	łez	.	8d\	łez	.	8g/	łez	.	8gg\	łez	.
.	12gg 12dd 12g\	.	.	.	.	.	.	.	.	.	.	.	.	.
.	.	.	8B\	i	.	8d\	i	.	8g/	i	.	8gg\	i	.
.	12ggJ 12dd 12g\	.	.	.	.	.	.	.	.	.	.	.	.	.
4c#\	12eeL 12a 12g\	.	8.c#\	krwi	.	8.c#\	krwi	.	8.a/	krwi	.	8.ee\	krwi	.
.	12ee 12a 12g\	.	.	.	.	.	.	.	.	.	.	.	.	.
.	12eeJ 12a 12g\	.	.	.	.	.	.	.	.	.	.	.	.	.
.	.	.	16c#\	pa-	.	16c#\	pa-	.	16a/	pa-	.	16ee\	pa-	.
4d\	12ff#L 12a 12f#\	.	4d\	-do-	.	4d\	-do-	.	4a/	-do-	.	4ff#\	-do-	.
.	12cc#\	.	.	.	.	.	.	.	.	.	.	.	.	.
.	12dd\J	.	.	.	.	.	.	.	.	.	.	.	.	.
4r	12ee\L	.	8D\	-ły,	.	8d\	-ły,	.	8a/	-ły,	.	8ff#\	-ły,	.
.	12ff#\	.	.	.	.	.	.	.	.	.	.	.	.	.
.	.	.	8r	.	.	8r	.	.	8r	.	.	8r	.	.
.	12gg\J	.	.	.	.	.	.	.	.	.	.	.	.	.
=23	=23	=23	=23	=23	=23	=23	=23	=23	=23	=23	=23	=23	=23	=23
*^	*^	*	*	*	*	*	*	*	*	*	*	*	*	*
*	*	*tremolo	*	*	*	*	*	*	*	*	*	*	*	*	*	*
!	!	!	!	!	!	!	!	!	!	!LO:DY:a	!	!	!LO:DY:a	!	!	!LO:DY:a
8D\L	2ryy	16aa/LL	4ff# 4a\	ff	2r	.	.	(8f#\L	rzu-	ff	2dd\	rzu-	ff	1aa	w gó-	ff
.	.	16a/	.	.	.	.	.	.	.	.	.	.	.	.	.	.
8d\	.	16aa/	.	.	.	.	.	8d\J)	.	.	.	.	.	.	.	.
.	.	16a/	.	.	.	.	.	.	.	.	.	.	.	.	.	.
8e\	.	16aa/	8eeL 8a\	.	.	.	.	(8e\L	-caj	.	.	.	.	.	.	.
.	.	16a/	.	.	.	.	.	.	.	.	.	.	.	.	.	.
8f#\J	.	16aa/	8ddJ 8a\	.	.	.	.	8f#\J)	.	.	.	.	.	.	.	.
.	.	16a/JJ	.	.	.	.	.	.	.	.	.	.	.	.	.	.
!	!	!	!	!	!	!	!LO:DY:a	!	!	!	!	!	!	!	!	!
4.g/	2A\	16aa/LL	2cc# 2a\	.	4A\	rzu-	ff	4.g\	łez	.	2cc#\	-caj	.	.	.	.
.	.	16a/	.	.	.	.	.	.	.	.	.	.	.	.	.	.
.	.	16aa/	.	.	.	.	.	.	.	.	.	.	.	.	.	.
.	.	16a/	.	.	.	.	.	.	.	.	.	.	.	.	.	.
.	.	16aa/	.	.	4A\	-caj	.	.	.	.	.	.	.	.	.	.
.	.	16a/	.	.	.	.	.	.	.	.	.	.	.	.	.	.
8e/	.	16aa/	.	.	.	.	.	8e\	i	.	.	.	.	.	.	.
.	.	16a/JJ	.	.	.	.	.	.	.	.	.	.	.	.	.	.
=24	=24	=24	=24	=24	=24	=24	=24	=24	=24	=24	=24	=24	=24	=24	=24	=24
4f#/	2D\	16aa/LL	4dd\	.	4d\	łez	.	(4f#\	krwi	.	(4dd\	łez	.	1aa	-rę	.
.	.	16a/	.	.	.	.	.	.	.	.	.	.	.	.	.	.
.	.	16aa/	.	.	.	.	.	.	.	.	.	.	.	.	.	.
.	.	16a/	.	.	.	.	.	.	.	.	.	.	.	.	.	.
8e/L	.	16aa/	8ee\L	.	4r	.	.	8.e\)	.	.	8ee\)	.	.	.	.	.
.	.	16a/	.	.	.	.	.	.	.	.	.	.	.	.	.	.
8d/J	.	16aa/	8ff#\J	.	.	.	.	.	.	.	8ff#\	i	.	.	.	.
.	.	16a/JJ	.	.	.	.	.	16d\	pa-	.	.	.	.	.	.	.
2c#/	2A\	16aa/LL	8ee\L	.	4.c#\	krwi	.	2c#\	-do-	.	(8ee\L	krwi	.	.	.	.
.	.	16a/	.	.	.	.	.	.	.	.	.	.	.	.	.	.
.	.	16aa/	8a\	.	.	.	.	.	.	.	8a\	.	.	.	.	.
.	.	16a/	.	.	.	.	.	.	.	.	.	.	.	.	.	.
.	.	16aa/	8cc#\	.	.	.	.	.	.	.	8cc#\J)	.	.	.	.	.
.	.	16a/	.	.	.	.	.	.	.	.	.	.	.	.	.	.
.	.	16aa/	8ee\J	.	8A\	pa-	.	.	.	.	8ee\	pa-	.	.	.	.
.	.	16a/JJ	.	.	.	.	.	.	.	.	.	.	.	.	.	.
=25	=25	=25	=25	=25	=25	=25	=25	=25	=25	=25	=25	=25	=25	=25	=25	=25
4f#/	2D\	16aa/LL	4dd\	.	4d\	-do-	.	4d\	-ły,	.	4ff#\	-do-	.	2aa\	leź	.
.	.	16a/	.	.	.	.	.	.	.	.	.	.	.	.	.	.
.	.	16aa/	.	.	.	.	.	.	.	.	.	.	.	.	.	.
.	.	16a/	.	.	.	.	.	.	.	.	.	.	.	.	.	.
8e/L	.	16aa/	8ee\L	.	4D\	-ły,	.	8e\	w gó-	.	(8ee\L	-ły,	.	.	.	.
.	.	16a/	.	.	.	.	.	.	.	.	.	.	.	.	.	.
8d/J	.	16aa/	8ff#\J	.	.	.	.	8f#\	-rę	.	8dd\J)	.	.	.	.	.
.	.	16a/JJ	.	.	.	.	.	.	.	.	.	.	.	.	.	.
2c#/	2A\	16aa/LL	8ee\L	.	4.A\	w gó-	.	4.g\	w gó-	.	4.cc#\	w gó-	.	4.aa\	w gó-	.
.	.	16a/	.	.	.	.	.	.	.	.	.	.	.	.	.	.
.	.	16aa/	8a\	.	.	.	.	.	.	.	.	.	.	.	.	.
.	.	16a/	.	.	.	.	.	.	.	.	.	.	.	.	.	.
.	.	16aa/	8cc#\	.	.	.	.	.	.	.	.	.	.	.	.	.
.	.	16a/	.	.	.	.	.	.	.	.	.	.	.	.	.	.
.	.	16aa/	8ee\J	.	8A\	-rę	.	8e\	-rę	.	8cc#\	-rę	.	8aa\	-rę	.
.	.	16a/JJ	.	.	.	.	.	.	.	.	.	.	.	.	.	.
!!LO:PB:g=original
=26	=26	=26	=26	=26	=26	=26	=26	=26	=26	=26	=26	=26	=26	=26	=26	=26
4f#/	2ryy	16aa/LL	4dd\	.	4D\	leć	.	4f#\	leć	.	4dd\	leć	.	[2aa\	leć	.
.	.	16a/	.	.	.	.	.	.	.	.	.	.	.	.	.	.
.	.	16aa/	.	.	.	.	.	.	.	.	.	.	.	.	.	.
.	.	16a/	.	.	.	.	.	.	.	.	.	.	.	.	.	.
8e/L	.	16aa/	8ee\L	.	4r	.	.	8.e\	w gó-	.	(8.ee\L	jak	.	.	.	.
.	.	16a/	.	.	.	.	.	.	.	.	.	.	.	.	.	.
8d/J	.	16aa/	8ff#\J	.	.	.	.	.	.	.	.	.	.	.	.	.
.	.	16a/JJ	.	.	.	.	.	16d\	-rę	.	16ff#\Jk)	.	.	.	.	.
2c#/	2A\	16aa/LL	8ee\L	.	4.c#\	w gó-	.	4c#\	leć	.	(8ee\L	brzmią-	.	4.aa\]	.	.
.	.	16a/	.	.	.	.	.	.	.	.	.	.	.	.	.	.
.	.	16aa/	8a\	.	.	.	.	.	.	.	8a\	.	.	.	.	.
.	.	16a/	.	.	.	.	.	.	.	.	.	.	.	.	.	.
.	.	16aa/	8cc#\	.	.	.	.	4r	.	.	8cc#\J)	.	.	.	.	.
.	.	16a/	.	.	.	.	.	.	.	.	.	.	.	.	.	.
.	.	16aa/	8ee\J	.	8A\	-rę	.	.	.	.	8ee\	-cy	.	8aa\	jak	.
.	.	16a/JJ	.	.	.	.	.	.	.	.	.	.	.	.	.	.
*	*	*Xtremolo	*	*	*	*	*	*	*	*	*	*	*	*	*	*
*	*	*v	*v	*	*	*	*	*	*	*	*	*	*	*	*	*
=27	=27	=27	=27	=27	=27	=27	=27	=27	=27	=27	=27	=27	=27	=27	=27
*	*^	*	*	*	*	*	*	*	*	*	*	*	*	*	*
*	*	*^	*	*	*	*	*	*	*	*	*	*	*	*	*	*
4f#/	1B	2A\	4ryy	4aa 4dd#X 4b\	.	4B\	leć	.	4f#\	jak	.	4dd#X\	śpiew	.	(4aa\	brzmią-	.
2e/	.	.	2e\	12ggL 12ee 12b\	.	4e\	jak	.	2e\	brzmią-	.	4ee\	jak	.	2gg\)	.	.
.	.	.	.	12gg 12ee 12b\	.	.	.	.	.	.	.	.	.	.	.	.	.
.	.	.	.	12ggJ 12ee 12b\	.	.	.	.	.	.	.	.	.	.	.	.	.
.	.	2A\	.	4gg 4cc# 4a\	.	4A\	brzmią-	.	.	.	.	4cc#\	brzmią-	.	.	.	.
[4d/	.	.	4ryy	12ff#L 12ddn 12a\	.	4d\	-cy	.	4d\	-cy	.	4ddn\	-cy	.	4ff#\	-cy	.
.	.	.	.	12ff# 12dd 12a\	.	.	.	.	.	.	.	.	.	.	.	.	.
.	.	.	.	12ff#J 12dd 12a\	.	.	.	.	.	.	.	.	.	.	.	.	.
*	*	*v	*v	*	*	*	*	*	*	*	*	*	*	*	*	*	*
*	*v	*v	*	*	*	*	*	*	*	*	*	*	*	*	*	*
=28	=28	=28	=28	=28	=28	=28	=28	=28	=28	=28	=28	=28	=28	=28	=28
4d/]	4G\	4ff# 4b 4g\	.	(4G\	śpiew;	.	(4d\	śpiew;	.	(4b\	śpiew;	.	(4ff#\	śpiew;	.
2c#/	4ryy	12eeL 12cc# 12g\	.	4c#\)	.	.	2c#\)	.	.	4cc#\)	.	.	4ee\)	.	.
.	.	12ee 12cc# 12g\	.	.	.	.	.	.	.	.	.	.	.	.	.
.	.	12eeJ 12cc# 12g\	.	.	.	.	.	.	.	.	.	.	.	.	.
.	4F#\	4ee 4a 4f#\	.	4F#\	już	.	.	.	.	4cc#\	już	.	4ee\	już	.
4B^>\	4ryy	12ddL 12f#\	.	4B\	twe	.	4B\	twe	.	4b\	twe	.	4dd\	twe	.
.	.	12dd 12f#\	.	.	.	.	.	.	.	.	.	.	.	.	.
.	.	12ddJ 12f#\	.	.	.	.	.	.	.	.	.	.	.	.	.
*v	*v	*	*	*	*	*	*	*	*	*	*	*	*	*	*
=29	=29	=29	=29	=29	=29	=29	=29	=29	=29	=29	=29	=29	=29	=29
*	*^	*	*	*	*	*	*	*	*	*	*	*	*	*
4E\	4dd 4g 4e\	4ryy	.	4E\	skro-	.	(4e\	skro-	.	(4g/	skro-	.	(4dd\	skro-	.
[4A^>\	8cc#/L	[4g [4e\	.	4A\	-nie	.	8e\)	.	.	8a/)	.	.	8cc#\)	.	.
.	8b/J	.	.	.	.	.	8e\	-nie	.	8a/	-nie	.	8b\	-nie	.
8A\L]	4cc#/	4g] 4e\]	.	(8A\L	świat-	.	(4e\	świat-	.	(4a/	świat-	.	(4cc#\	świat-	.
8G\J	.	.	.	8G\	.	.	.	.	.	.	.	.	.	.	.
4F#^>\	4dd 4a/	4d\	.	8F#\J)	.	.	8d\)	.	.	8a/)	.	.	8dd\)	.	.
.	.	.	.	8D\	-ło	.	8d\	-ło	.	8f#/	-ło	.	8dd\	-ło	.
!!LO:LB:g=original
=30	=30	=30	=30	=30	=30	=30	=30	=30	=30	=30	=30	=30	=30	=30	=30
4A 4AA\	8.eeL 8.cc# 8.a/	4g\	.	4AA^>/	wień-	.	(8.c#^>\L	wień-	.	(8.g^>/L	wień-	.	(8.ee^>\L	wień-	.
.	16ff#/Jk	.	.	.	.	.	16d\Jk)	.	.	16f#/Jk)	.	.	16ff#\Jk)	.	.
4D\	4dd 4f#/	4ryy	.	4D\	-czy	.	4d\	-czy	.	4f#/	-czy	.	4dd\	-czy	.
4ryy	4ryy	2ryy	.	4r	.	.	4r	.	.	4r	.	.	4r	.	.
*	*tuplet	*	*	*	*	*	*	*	*	*	*	*	*	*	*
!	!LO:TUP:b	!	!	!	!	!	!	!	!	!	!	!	!	!	!
4F# 4FF#/	12ddL 12a 12d/	.	sf	4F#^>\	Jak	.	4d^>\	Jak	.	4a^>/	Jak	.	4dd^>\	Jak	.
.	12dd 12a 12d/	.	.	.	.	.	.	.	.	.	.	.	.	.	.
.	12ddJ 12a 12d/	.	.	.	.	.	.	.	.	.	.	.	.	.	.
*	*Xtuplet	*	*	*	*	*	*	*	*	*	*	*	*	*	*
=31	=31	=31	=31	=31	=31	=31	=31	=31	=31	=31	=31	=31	=31	=31	=31
*	*	*^	*	*	*	*	*	*	*	*	*	*	*	*	*
4E 4EE/	4dd 4g 4e/	4ryy	4ryy	.	4E\	ró-	.	4e\	ró-	.	8a/	ró-	.	8dd\	ró-	.
.	.	.	.	.	.	.	.	.	.	.	4a\	-ża-	.	4cc#\	-ża-	.
4A 4AA/	8cc#/L	4g\	2e\	.	[4A\	-ża-	.	4.e\	-ża-	.	.	.	.	.	.	.
.	8b/J	.	.	.	.	.	.	.	.	.	8a\	-ny	.	8b\	-ny	.
8AL 8AA/	4cc#/	4ryy	.	.	8A\]	.	.	.	.	.	4.a\	kwiat	.	(4cc#\	kwiat	.
8GJ 8GG/	.	.	.	.	8G\	-ny	.	8e\	-ny	.	.	.	.	.	.	.
4F# 4FF#/	4dd/	4a 4d\	4ryy	.	8.F#\	kwiat	.	8.d\	kwiat	.	.	.	.	8.dd\)	.	.
.	.	.	.	.	.	.	.	.	.	.	8a/	mło-	.	.	.	.
.	.	.	.	.	16F#\	mło-	.	16d\	mło-	.	.	.	.	16dd\	mło-	.
*	*	*v	*v	*	*	*	*	*	*	*	*	*	*	*	*	*
=32	=32	=32	=32	=32	=32	=32	=32	=32	=32	=32	=32	=32	=32	=32	=32
8.EL 8.EE/	8.eeL 8.cc#/	8.a\L	.	(8.E\L	-dzień-	.	(8.c#\L	-dzień-	.	4a\	-dzień-	.	(8.ee\L	-dzień-	.
16DJk 16DD/	16ff#Jk 16dd/	16a\Jk	sf	16D\Jk)	.	.	16d\Jk)	.	.	.	.	.	16ff#\Jk)	.	.
2C# 2CC#^>/	2gg 2ee/	2a\	.	(4C#^>/	-czy,	.	2e^>\	-czy,	.	2a^>\	-czy,	.	2gg^>\	-czy,	.
.	.	.	.	4AA/)	.	.	.	.	.	.	.	.	.	.	.
4D 4DD/	4ff# 4dd 4a\	4ryy	.	8.D\	boś	.	8.d\	boś	.	8.a/	boś	.	8.ff#\	boś	.
.	.	.	.	16D\	za	.	16d\	za	.	16a/	za	.	16ff#\	za	.
*	*v	*v	*	*	*	*	*	*	*	*	*	*	*	*	*
=33	=33	=33	=33	=33	=33	=33	=33	=33	=33	=33	=33	=33	=33	=33
4G 4GG/	4ee 4b 4g/	.	4.G^>\	wia-	.	4.B^>\	wia-	.	4.e^>/	wia-	.	4.ee^>\	wia-	.
4G 4GG/	12eeL 12b 12g/	>	.	.	.	.	.	.	.	.	.	.	.	.
.	12ee 12b 12g/	.	.	.	.	.	.	.	.	.	.	.	.	.
.	.	.	8G\	-rę	.	8B\	-rę	.	8e/	-rę	.	8ee\	-rę	.
.	12eeJ 12b 12g/	.	.	.	.	.	.	.	.	.	.	.	.	.
4G#X 4GG#X/	4ee 4b 4fn/	.	4..G#X\	prze-	.	4..B\	prze-	.	4..e/	prze-	.	4..dd\	prze-	.
4G# 4GG#/	8.ddL 8.b 8.f/	.	.	.	.	.	.	.	.	.	.	.	.	.
.	16ddJk 16b 16f/	]]	16G#\	-lał	.	16B\	-lał	.	16e/	-lał	.	16dd\	-lał	.
!!LO:LB:g=original
=67||	=67||	=67||	=67||	=67||	=67||	=67||	=67||	=67||	=67||	=67||	=67||	=67||	=67||	=67||
*k[f#c#]	*k[f#c#]	*	*k[f#c#]	*	*	*k[f#c#]	*	*	*k[f#c#]	*	*	*k[f#c#]	*	*
4A 4AA\	4dd 4f#/	f	(4D\	czas	.	(4d\	czas	.	(4f#/	czas	.	(4dd\	czas	.
!	!LO:TX:b:t=marcato.	!	!	!	!	!	!	!	!	!	!	!	!	!
8.AL 8.AA\	8.eeL 8.e/	.	8.AA/)	.	.	8.c#\)	.	.	8.e/)	.	.	8.ee\)	.	.
16AJk 16AA\	16cc#Jk 16e/	.	16AA/	i	.	16A/	i	.	16e/	i	.	16cc#\	i	.
*	*Xtuplet	*	*	*	*	*	*	*	*	*	*	*	*	*
2A 2AA\	12aL 12c#/	.	4AA/	prze-	.	4c#\	prze-	.	4a/	prze-	.	4a/	prze-	.
.	12a'/	.	.	.	.	.	.	.	.	.	.	.	.	.
.	12b'/J	.	.	.	.	.	.	.	.	.	.	.	.	.
.	12cc#'\L	.	4AA/	-strzeń	.	4c#\	-strzeń	.	4a/	-strzeń	.	4b/	-strzeń	.
.	12dd'\	.	.	.	.	.	.	.	.	.	.	.	.	.
.	12ee'\J	.	.	.	.	.	.	.	.	.	.	.	.	.
=68	=68	=68	=68	=68	=68	=68	=68	=68	=68	=68	=68	=68	=68	=68
4A 4D\	4dd 4f#/	.	8.D\	to-	.	8.d\	to-	.	8.f#/	to-	.	8.dd\	to-	.
.	.	.	16F#\	-bie	.	16d\	-bie	.	16d/	-bie	.	16dd\	-bie	.
8.AL 8.AA\	8.eeL 8.e/	.	4A\	ni-	.	(8.c#\L	ni-	.	4e/	ni-	.	(8.ee\L	ni-	.
16AJk 16AA\	16cc#Jk 16e/	.	.	.	.	16A\Jk)	.	.	.	.	.	16cc#\Jk)	.	.
2A 2AA\	12a 12c#/	.	4A\	-czém,	.	4c#\	-czém,	.	4e/	-czém,	.	4a/	-czém,	.
.	12aa\L	.	.	.	.	.	.	.	.	.	.	.	.	.
.	12gg\J	.	.	.	.	.	.	.	.	.	.	.	.	.
.	12ee\L	.	4r	.	.	4r	.	.	4r	.	.	4r	.	.
.	12cc#\	.	.	.	.	.	.	.	.	.	.	.	.	.
.	12a\J	.	.	.	.	.	.	.	.	.	.	.	.	.
=69	=69	=69	=69	=69	=69	=69	=69	=69	=69	=69	=69	=69	=69	=69
8.D\L	4dd 4f#\	.	4d\	bos-	.	(4d\	bos-	.	(4f#/	bos-	.	(4dd\	bos-	.
16F#\K	.	.	.	.	.	.	.	.	.	.	.	.	.	.
8.A\	8.eeL 8.e\	.	4A\	-kiém	.	8.c#\)	.	.	8.e/)	.	.	8.ee\)	.	.
16A\Jk	16cc#\Jk	sf	.	.	.	16e\	-kiém	.	16a/	-kiém	.	16cc#\	-kiém	.
4A 4AA^>\	2gg 2ee 2g\	.	4.A\	cie-	.	4.e\	cie-	.	4.cc#\	cie-	.	4.gg\	cie-	.
4A#X 4AA#X\	.	.	.	.	.	.	.	.	.	.	.	.	.	.
.	.	.	8A#X\	-sząc	.	8e\	-sząc	.	8cc#\	-sząc	.	8ee\	-sząc	.
!!LO:PB:g=original
=70	=70	=70	=70	=70	=70	=70	=70	=70	=70	=70	=70	=70	=70	=70
8.BL 8.BB\	8.ggL 8.dd 8.g\	.	4.B\	się	.	(4d\	się	.	(4dd\	się	.	(8gg\L	się	.
.	.	.	.	.	.	.	.	.	.	.	.	8ff#\	.	.
(16cnK 16A\	(16ff#K 16f#\	.	.	.	.	.	.	.	.	.	.	.	.	.
8.B 8.G\)	8.ee 8.e\)	.	.	.	.	8e\)	.	.	8b\)	.	.	8ee\J)	.	.
.	.	.	8F#\	ob-	.	8d\	ob-	.	8a\	ob-	.	8dd\	ob-	.
(16AJk 16F#\	(16ddJk 16d\	.	.	.	.	.	.	.	.	.	.	.	.	.
4B 4G\)	4ee 4e/)	.	(4G\	-li-	.	(4e\	-li-	.	2b\	-li-	.	(4ee\	-li-	.
4B 4G#X\	4dd 4b 4fn/	.	4G#X\)	.	.	4fn\)	.	.	.	.	.	4dd\)	.	.
=71	=71	=71	=71	=71	=71	=71	=71	=71	=71	=71	=71	=71	=71	=71
4A^>\	4cc# 4a 4e/	.	4A\	-czem	.	4e\	-czem	.	4a\	-czem	.	4cc#\	-czem	.
4E^>\	4b 4g#X 4e/	.	4r	.	.	4r	.	.	4r	.	.	4r	.	.
*	*tuplet	*	*	*	*	*	*	*	*	*	*	*	*	*
!	!LO:TUP:b	!	!	!	!	!	!	!	!	!	!	!	!	!
4AA^>/	12aL 12e 12c#/	.	2r	.	.	2r	.	.	2r	.	.	2r	.	.
.	12a'/	.	.	.	.	.	.	.	.	.	.	.	.	.
.	12b'/J	.	.	.	.	.	.	.	.	.	.	.	.	.
*	*Xtuplet	*	*	*	*	*	*	*	*	*	*	*	*	*
4r	12cc#'\L	<	.	.	.	.	.	.	.	.	.	.	.	.
.	12dd'\	.	.	.	.	.	.	.	.	.	.	.	.	.
.	12ee'\J	[[	.	.	.	.	.	.	.	.	.	.	.	.
=72	=72	=72	=72	=72	=72	=72	=72	=72	=72	=72	=72	=72	=72	=72
4A 4D\	4dd 4f#/	f	(4D\	Cze-	.	(4d\	Cze-	.	(4f#/	Cze-	.	(4dd\	Cze-	.
8.AL 8.AA\	8.eeL 8.e/	.	8.AA/)	.	.	8.c#\)	.	.	8.e/)	.	.	8.ee\)	.	.
16AJk 16AA\	16cc#Jk 16e/	.	16AA/	-kasz	.	16e\	-kasz	.	16e/	-kasz	.	16cc#\	-kasz	.
2A 2AA\	12aL 12c#/	sf	2AA/	na	.	2c#\	na	.	2a/	na	.	2a\	na	.
.	12a'/	.	.	.	.	.	.	.	.	.	.	.	.	.
.	12b'/J	.	.	.	.	.	.	.	.	.	.	.	.	.
.	12cc#'\L	.	.	.	.	.	.	.	.	.	.	.	.	.
.	12dd'\	.	.	.	.	.	.	.	.	.	.	.	.	.
.	12ee'\J	.	.	.	.	.	.	.	.	.	.	.	.	.
=73	=73	=73	=73	=73	=73	=73	=73	=73	=73	=73	=73	=73	=73	=73
*^	*	*	*	*	*	*	*	*	*	*	*	*	*	*
*Xtuplet	*	*	*	*	*	*	*	*	*	*	*	*	*	*	*
4A/	12D\L	4dd 4f#/	.	(8D\L	os-	.	4d\	os-	.	4f#/	os-	.	4dd\	os-	.
.	12C#\	.	.	.	.	.	.	.	.	.	.	.	.	.	.
.	.	.	.	8F#\J)	.	.	.	.	.	.	.	.	.	.	.
.	12D\J	.	.	.	.	.	.	.	.	.	.	.	.	.	.
4AA\	12E/L	8.eeL 8.e/	.	8.A\	-ta-	.	8.c#\	-ta-	.	8.e/	-ta-	.	8.ee\	-ta-	.
.	12F#/	.	.	.	.	.	.	.	.	.	.	.	.	.	.
.	12G/J	.	.	.	.	.	.	.	.	.	.	.	.	.	.
.	.	16cc#/Jk	.	16A\	-tni	.	16e\	-tni	.	16a/	-tni	.	16cc#\	-tni	.
4A 4AA\	4ryy	2gg 2ee 2cc# 2g\	sf	4.A^>\	sąd	.	4.e^>\	sąd	.	4.cc#^>\	sąd	.	4.gg^>\	sąd	.
4A#X 4AA#X\	4ryy	.	.	.	.	.	.	.	.	.	.	.	.	.	.
.	.	.	.	8A#X\	na	.	8e\	na	.	8cc#\	na	.	8ee\	na	.
*v	*v	*	*	*	*	*	*	*	*	*	*	*	*	*	*
!!LO:LB:g=original
=74	=74	=74	=74	=74	=74	=74	=74	=74	=74	=74	=74	=74	=74	=74
8.BL 8.BB\	8.ggL 8.dd 8.g\	.	(8B\L	os-	.	2d\	os-	.	(8g/L	os-	.	(8gg\L	os-	.
.	.	.	8An\	.	.	.	.	.	8f#/	.	.	8ff#\	.	.
(16AnK 16AAn\	(16ff#K 16cc# 16f#\	.	.	.	.	.	.	.	.	.	.	.	.	.
8.G 8.GG\)	8.ee 8.b 8.e\)	.	8G\	.	.	.	.	.	8e/	.	.	8ee\	.	.
.	.	.	8F#\J)	.	.	.	.	.	8d/J)	.	.	8dd\J)	.	.
(16F#Jk 16FF#\	(16ddJk 16a 16d\	.	.	.	.	.	.	.	.	.	.	.	.	.
4G 4GG\)	4ee 4b 4e\)	.	(4G\	-ta-	.	(4B\	-ta-	.	(4e/	-ta-	.	(4ee\	-ta-	.
4A 4AA\	4cc# 4a 4eT\	.	8.A\)	.	.	8.e\)	.	.	8.a/)	.	.	8.cc#\)	.	.
.	.	.	16A\	-tni	.	16e\	-tni	.	16g/	-tni	.	16cc#\	-tni	.
=75	=75	=75	=75	=75	=75	=75	=75	=75	=75	=75	=75	=75	=75	=75
8.DL 8.DD\	8.ddL 8.f#/	.	2D\	sąd!	.	2d\	sąd!	.	2f#/	sąd!	.	2dd\	sąd!	.
16D\Jk	16d/Jk	.	.	.	.	.	.	.	.	.	.	.	.	.
12D\L	12d/L	f	.	.	.	.	.	.	.	.	.	.	.	.
12C#\	12c#/	<	.	.	.	.	.	.	.	.	.	.	.	.
12D\J	12d/J	.	.	.	.	.	.	.	.	.	.	.	.	.
12E\L	12e/L	.	4r	.	.	4r	.	.	4r	.	.	4r	.	.
12F#\	12f#/	.	.	.	.	.	.	.	.	.	.	.	.	.
12G\J	12g/J	.	.	.	.	.	.	.	.	.	.	.	.	.
12A\L	12a/L	.	8r	.	.	8r	.	.	8r	.	.	8r	.	.
12B\	12b/	.	.	.	.	.	.	.	.	.	.	.	.	.
.	.	.	8A\	I	.	8f#\	I	.	8a/	I	.	8a/	I	.
12c#\J	12cc#/J	[[	.	.	.	.	.	.	.	.	.	.	.	.
=76	=76	=76	=76	=76	=76	=76	=76	=76	=76	=76	=76	=76	=76	=76
4.D 4.DD/	4.dd 4.a 4.f# 4.d/	.	4.d\	śpiew	.	4.f#\	śpiew	.	4.a/	śpiew	.	4.dd\	śpiew	.
8D 8AA 8FF# 8DD/	8dd 8a 8f# 8d/	.	8d\	Woj-	.	8f#\	Woj-	.	8a/	Woj-	.	8dd\	Woj-	.
4D 4AA 4FF# 4DD/	4dd 4a 4f# 4d/	.	2d\	-cie-	.	2f#\	-cie-	.	2a/	-cie-	.	2dd\	-cie-	.
4D 4AA 4FF# 4DD/	4dd 4a 4f# 4d/	.	.	.	.	.	.	.	.	.	.	.	.	.
=77	=77	=77	=77	=77	=77	=77	=77	=77	=77	=77	=77	=77	=77	=77
8.DL 8.AA 8.FF# 8.DD/	8.ddL 8.a 8.f# 8.d/	.	2D\	-cha	.	2f#\	-cha	.	2a/	-cha	.	2dd\	-cha	.
16F#/Jk	16f#/Jk	<	.	.	.	.	.	.	.	.	.	.	.	.
12F#\L	12f#/L	.	.	.	.	.	.	.	.	.	.	.	.	.
12E\	12e/	.	.	.	.	.	.	.	.	.	.	.	.	.
12F#\J	12f#/J	.	.	.	.	.	.	.	.	.	.	.	.	.
12G\L	12g/L	.	2r	.	.	2r	.	.	2r	.	.	2r	.	.
12A\	12a/	.	.	.	.	.	.	.	.	.	.	.	.	.
12B\J	12b/J	.	.	.	.	.	.	.	.	.	.	.	.	.
12c#\L	12cc#/L	.	.	.	.	.	.	.	.	.	.	.	.	.
12d\	12dd/	.	.	.	.	.	.	.	.	.	.	.	.	.
12e\J	12ee/J	[[	.	.	.	.	.	.	.	.	.	.	.	.
!!LO:LB:g=original
=78	=78	=78	=78	=78	=78	=78	=78	=78	=78	=78	=78	=78	=78	=78
4.d 4.A 4.F# 4.D\	4.ff# 4.dd 4.a 4.f#\	ff	4.d\	bę-	.	4.f#\	bę-	.	4.dd\	bę-	.	4.ff#\	bę-	.
8d 8A 8F# 8D\	8ff# 8dd 8a 8f#\	.	8d\	-dzie	.	8f#\	-dzie	.	8dd\	-dzie	.	8ff#\	-dzie	.
4d 4A 4F# 4D\	4ff# 4dd 4a 4f#\	.	4.d\	świat	.	4.f#\	świat	.	4.dd\	świat	.	4.ff#\	świat	.
4d 4A 4F# 4D\	4ff# 4dd 4a 4f#\	.	.	.	.	.	.	.	.	.	.	.	.	.
.	.	.	8d\	pow-	.	8d\	pow-	.	8dd\	pow-	.	8ff#\	pow-	.
=79	=79	=79	=79	=79	=79	=79	=79	=79	=79	=79	=79	=79	=79	=79
2.d 2.B 2.G#X 2.Fn 2.D\	12dddL 12ffn\	p	2D\	-ta-	.	2d\	-ta-	.	2dd\	-ta-	.	2dd\	-ta-	.
.	12gg#X 12dd\	.	.	.	.	.	.	.	.	.	.	.	.	.
.	12dddJ 12ff\	.	.	.	.	.	.	.	.	.	.	.	.	.
!	!LO:TX:b:t=legato.	!	!	!	!	!	!	!	!	!	!	!	!	!
.	12gg#L 12dd\	.	.	.	.	.	.	.	.	.	.	.	.	.
.	12ddd 12ff\	.	.	.	.	.	.	.	.	.	.	.	.	.
.	12gg#J 12dd\	.	.	.	.	.	.	.	.	.	.	.	.	.
.	12gg#L 12dd\	.	4D\	-rzał	.	4d\	-rzał	.	4dd\	-rzał	.	4dd\	-rzał	.
.	12ddd 12ff\	.	.	.	.	.	.	.	.	.	.	.	.	.
.	12gg#J 12dd\	.	.	.	.	.	.	.	.	.	.	.	.	.
4d 4B 4G# 4F 4D\	12gg#L 12dd\	.	4r	.	.	4r	.	.	4r	.	.	4r	.	.
.	12ddd 12ff\	.	.	.	.	.	.	.	.	.	.	.	.	.
.	12gg#J 12dd\	.	.	.	.	.	.	.	.	.	.	.	.	.
=80	=80	=80	=80	=80	=80	=80	=80	=80	=80	=80	=80	=80	=80	=80
2d 2A 2F#X 2D\	12dddL 12ff#X\	.	1r	.	.	1r	.	.	1r	.	.	1r	.	.
.	12aa 12dd\	.	.	.	.	.	.	.	.	.	.	.	.	.
.	12ddd 12ff#\	.	.	.	.	.	.	.	.	.	.	.	.	.
.	12ddd 12dd\	.	.	.	.	.	.	.	.	.	.	.	.	.
.	12aa 12ff#\	.	.	.	.	.	.	.	.	.	.	.	.	.
.	12dddJ 12dd\	.	.	.	.	.	.	.	.	.	.	.	.	.
4d 4A 4F# 4D\	12dddL 12ff#X\	.	.	.	.	.	.	.	.	.	.	.	.	.
.	12aa 12dd\	.	.	.	.	.	.	.	.	.	.	.	.	.
.	12ddd 12ff#\	.	.	.	.	.	.	.	.	.	.	.	.	.
4d 4A 4F# 4D\	12aa 12dd\	.	.	.	.	.	.	.	.	.	.	.	.	.
.	12ddd 12ff#\	.	.	.	.	.	.	.	.	.	.	.	.	.
.	12aaJ 12dd\	.	.	.	.	.	.	.	.	.	.	.	.	.
!!LO:PB:g=original
=81	=81	=81	=81	=81	=81	=81	=81	=81	=81	=81	=81	=81	=81	=81
*^	*	*	*	*	*	*	*	*	*	*	*	*	*	*
1d 1B 1G#X	2.Fn 2.D\	12dddL 12ffn\	.	2D\	Jak	.	2d\	Jak	.	1r	.	.	1r	.	.
.	.	12gg#X 12dd\	.	.	.	.	.	.	.	.	.	.	.	.	.
.	.	12dddJ 12ff\	.	.	.	.	.	.	.	.	.	.	.	.	.
.	.	12gg#L 12dd\	.	.	.	.	.	.	.	.	.	.	.	.	.
.	.	12ddd 12ff\	.	.	.	.	.	.	.	.	.	.	.	.	.
.	.	12gg#J 12dd\	.	.	.	.	.	.	.	.	.	.	.	.	.
.	.	12dddL 12ffnX\	.	4D\	nieg-	.	4d\	nieg-	.	.	.	.	.	.	.
.	.	12gg#X 12dd\	.	.	.	.	.	.	.	.	.	.	.	.	.
.	.	12dddJ 12ff\	.	.	.	.	.	.	.	.	.	.	.	.	.
.	4d 4B 4G# 4F 4D\	12gg#L 12dd\	.	4D\	-dyś	.	4d\	-dyś	.	.	.	.	.	.	.
.	.	12ddd 12ff\	.	.	.	.	.	.	.	.	.	.	.	.	.
.	.	12gg#J 12dd\	.	.	.	.	.	.	.	.	.	.	.	.	.
=82	=82	=82	=82	=82	=82	=82	=82	=82	=82	=82	=82	=82	=82	=82	=82
1d 1A 1F#X	2D\	12dddL 12ff#X\	.	(4.D\	Bo-	.	2f#\	Bo-	.	1r	.	.	1r	.	.
.	.	12aa 12dd\	.	.	.	.	.	.	.	.	.	.	.	.	.
.	.	12ddd 12ff#\	.	.	.	.	.	.	.	.	.	.	.	.	.
.	.	12aa 12dd\	.	.	.	.	.	.	.	.	.	.	.	.	.
.	.	12ddd 12ff#\	.	.	.	.	.	.	.	.	.	.	.	.	.
.	.	.	.	8E\)	.	.	.	.	.	.	.	.	.	.	.
.	.	12aaJ 12dd\	.	.	.	.	.	.	.	.	.	.	.	.	.
.	2ryy	12dddL 12ff#\	.	2F#\	-ga	.	2d\	-ga	.	.	.	.	.	.	.
.	.	12aa 12dd\	.	.	.	.	.	.	.	.	.	.	.	.	.
.	.	12ddd 12ff#\	.	.	.	.	.	.	.	.	.	.	.	.	.
.	.	12aa 12dd\	.	.	.	.	.	.	.	.	.	.	.	.	.
.	.	12ddd 12ff#\	.	.	.	.	.	.	.	.	.	.	.	.	.
.	.	12aaJ 12dd\	.	.	.	.	.	.	.	.	.	.	.	.	.
=83	=83	=83	=83	=83	=83	=83	=83	=83	=83	=83	=83	=83	=83	=83	=83
1d 1B 1G#X	2.Fn 2.D\	12dddL 12ffn\	.	4.D\	Gdy	.	4.d\	Gdy	.	1r	.	.	1r	.	.
.	.	12gg#X 12dd\	.	.	.	.	.	.	.	.	.	.	.	.	.
.	.	12dddJ 12ff\	.	.	.	.	.	.	.	.	.	.	.	.	.
.	.	12gg#L 12dd\	.	.	.	.	.	.	.	.	.	.	.	.	.
.	.	12ddd 12ff\	.	.	.	.	.	.	.	.	.	.	.	.	.
.	.	.	.	8D\	nie-	.	8d\	nie-	.	.	.	.	.	.	.
.	.	12gg#J 12dd\	.	.	.	.	.	.	.	.	.	.	.	.	.
.	.	12dddL 12ff\	.	4D\	-bio-	.	4d\	-bio-	.	.	.	.	.	.	.
.	.	12gg#X 12dd\	.	.	.	.	.	.	.	.	.	.	.	.	.
.	.	12dddJ 12ff\	.	.	.	.	.	.	.	.	.	.	.	.	.
.	4d 4B 4G# 4F 4D\	12gg#L 12dd\	.	4D\	-sa	.	4d\	-sa	.	.	.	.	.	.	.
.	.	12ddd 12ff\	.	.	.	.	.	.	.	.	.	.	.	.	.
.	.	12gg#J 12dd\	.	.	.	.	.	.	.	.	.	.	.	.	.
!!LO:LB:g=original
=84	=84	=84	=84	=84	=84	=84	=84	=84	=84	=84	=84	=84	=84	=84	=84
1d 1A 1F#X	2D\	12dddL 12ff#X\	.	2D\	stwa-	.	2d\	stwa-	.	1r	.	.	1r	.	.
.	.	12aa 12dd\	.	.	.	.	.	.	.	.	.	.	.	.	.
.	.	12ddd 12ff#\	.	.	.	.	.	.	.	.	.	.	.	.	.
.	.	12aa 12dd\	.	.	.	.	.	.	.	.	.	.	.	.	.
.	.	12ddd 12ff#\	.	.	.	.	.	.	.	.	.	.	.	.	.
.	.	12aaJ 12dd\	.	.	.	.	.	.	.	.	.	.	.	.	.
.	2ryy	12dddL 12ff#\	.	4D\	-rzał	.	4d\	-rzał	.	.	.	.	.	.	.
.	.	12aa 12dd\	.	.	.	.	.	.	.	.	.	.	.	.	.
.	.	12ddd 12ff#\	.	.	.	.	.	.	.	.	.	.	.	.	.
.	.	12aa 12dd\	.	4r	.	.	4r	.	.	.	.	.	.	.	.
.	.	12ddd 12ff#\	.	.	.	.	.	.	.	.	.	.	.	.	.
.	.	12aaJ 12dd\	.	.	.	.	.	.	.	.	.	.	.	.	.
=85	=85	=85	=85	=85	=85	=85	=85	=85	=85	=85	=85	=85	=85	=85	=85
1c# 1A 1D	4A/	12aaL 12cc#\	.	4r	.	.	4r	.	.	4r	.	.	4r	.	.
.	.	12ee 12a\	.	.	.	.	.	.	.	.	.	.	.	.	.
.	.	12aa 12cc#\	.	.	.	.	.	.	.	.	.	.	.	.	.
!	!	!	!	!	!	!LO:DY:a	!	!	!LO:DY:a	!	!	!LO:DY:a	!	!	!LO:DY:a
.	4A/	12ee 12a\	.	4A\	i	p	4c#\	i	p	4e/	I	p	4a/	i	p
.	.	12aa 12cc#\	.	.	.	.	.	.	.	.	.	.	.	.	.
.	.	12eeJ 12a\	.	.	.	.	.	.	.	.	.	.	.	.	.
.	4A/	12aaL 12cc#\	.	4A\	śpiew	.	4c#\	śpiew	.	4e/	śpiew	.	4a/	śpiew	.
.	.	12ee 12a\	.	.	.	.	.	.	.	.	.	.	.	.	.
.	.	12aa 12cc#\	.	.	.	.	.	.	.	.	.	.	.	.	.
.	4A/	12ee 12a\	.	4G\	Woj-	.	4c#\	Woj-	.	4e/	Woj-	.	4a/	Woj-	.
.	.	12aa 12cc#\	.	.	.	.	.	.	.	.	.	.	.	.	.
.	.	12eeJ 12a\	.	.	.	.	.	.	.	.	.	.	.	.	.
=86	=86	=86	=86	=86	=86	=86	=86	=86	=86	=86	=86	=86	=86	=86	=86
[2d 2D\	4ryy	12aaL 12dd\	.	(4F#\	-cie-	.	2.d\	-cie-	.	(4d/	-cie-	.	2.a/	-cie-	.
.	.	12ff# 12a\	.	.	.	.	.	.	.	.	.	.	.	.	.
.	.	12aa 12dd\	.	.	.	.	.	.	.	.	.	.	.	.	.
.	4E/	12ff# 12a\	.	4E\)	.	.	.	.	.	4e/)	.	.	.	.	.
.	.	12aa 12dd\	.	.	.	.	.	.	.	.	.	.	.	.	.
.	.	12ff#J 12a\	.	.	.	.	.	.	.	.	.	.	.	.	.
4d/]	4D\	12aaL 12dd\	.	4D\	-cha	.	.	.	.	2f#/	-cha	.	.	.	.
.	.	12ff# 12a\	.	.	.	.	.	.	.	.	.	.	.	.	.
.	.	12aa 12dd\	.	.	.	.	.	.	.	.	.	.	.	.	.
8F#L 8FF#\	4ryy	12ff# 12a\	.	(8F#\L	bę-	.	4d\	-cha	.	.	.	.	4a/	-cha	.
.	.	12aa 12dd\	.	.	.	.	.	.	.	.	.	.	.	.	.
8GJ 8GG\	.	.	.	8G\J)	.	.	.	.	.	.	.	.	.	.	.
.	.	12ff#J 12a\	.	.	.	.	.	.	.	.	.	.	.	.	.
*v	*v	*	*	*	*	*	*	*	*	*	*	*	*	*	*
=87	=87	=87	=87	=87	=87	=87	=87	=87	=87	=87	=87	=87	=87	=87
2A 2AA\	12aaL 12cc#\	.	2A\	-dzie	.	4c#\	bę-	.	4e/	bę-	.	4a/	bę-	.
.	12ee 12a\	.	.	.	.	.	.	.	.	.	.	.	.	.
.	12aa 12cc#\	.	.	.	.	.	.	.	.	.	.	.	.	.
.	12ee 12a\	.	.	.	.	4c#\	-dzie	.	4e/	-dzie	.	4a/	-dzie	.
.	12aa 12cc#\	.	.	.	.	.	.	.	.	.	.	.	.	.
.	12eeJ 12a\	.	.	.	.	.	.	.	.	.	.	.	.	.
4A 4AA\	12aaL 12cc#\	.	4A\	świat	.	4c#\	świat	.	4e/	świat	.	4a/	świat	.
.	12ee 12a\	.	.	.	.	.	.	.	.	.	.	.	.	.
.	12aa 12cc#\	.	.	.	.	.	.	.	.	.	.	.	.	.
4A 4AA\	12ee 12a\	.	4A\	pow-	.	4c#\	pow-	.	4d/	pow-	.	4a/	pow-	.
.	12aa 12cc#\	.	.	.	.	.	.	.	.	.	.	.	.	.
.	12eeJ 12a\	.	.	.	.	.	.	.	.	.	.	.	.	.
!!LO:LB:g=original
=88	=88	=88	=88	=88	=88	=88	=88	=88	=88	=88	=88	=88	=88	=88
2.G 2.GG\	12bbL 12dd\	.	2.G\	-ta-	.	2.d\	-ta-	.	2.d/	-ta-	.	2.b\	-ta-	.
.	12gg 12b\	.	.	.	.	.	.	.	.	.	.	.	.	.
.	12bb 12dd\	.	.	.	.	.	.	.	.	.	.	.	.	.
.	12gg 12b\	.	.	.	.	.	.	.	.	.	.	.	.	.
.	12bb 12dd\	.	.	.	.	.	.	.	.	.	.	.	.	.
.	12ggJ 12b\	.	.	.	.	.	.	.	.	.	.	.	.	.
.	12bbL 12dd\	.	.	.	.	.	.	.	.	.	.	.	.	.
.	12gg 12b\	.	.	.	.	.	.	.	.	.	.	.	.	.
.	12bbJ 12dd\	.	.	.	.	.	.	.	.	.	.	.	.	.
4F# 4FF#/	12dd\L	.	4F#\	-rzał	.	4d\	-rzał	.	4a/	-rzał	.	4dd\	-rzał	.
.	12aa\	.	.	.	.	.	.	.	.	.	.	.	.	.
.	12ddd\J	.	.	.	.	.	.	.	.	.	.	.	.	.
=89	=89	=89	=89	=89	=89	=89	=89	=89	=89	=89	=89	=89	=89	=89
4E 4EE/	12dddL 12gg\	.	4E\	Jak	.	4A/	Jak	.	4a/	Jak	.	4dd\	Jak	.
.	12ee\	.	.	.	.	.	.	.	.	.	.	.	.	.
.	12ddd 12gg\	.	.	.	.	.	.	.	.	.	.	.	.	.
4A 4AA^>\	12ccc# 12gg\	.	8E\	nieg-	.	8A/	nieg-	.	8a/	nieg-	.	8cc#\	nieg-	.
.	12ee\	.	.	.	.	.	.	.	.	.	.	.	.	.
.	.	.	8E\	-dyś	.	8A/	-dyś	.	8a/	-dyś	.	8b\	-dyś	.
.	12bb\J	.	.	.	.	.	.	.	.	.	.	.	.	.
8AL 8AA\	12ccc#L 12gg\	.	4AA/	Bo-	.	8A/L	Bo-	.	4a/	Bo-	.	4cc#\	Bo-	.
.	12ee\	.	.	.	.	.	.	.	.	.	.	.	.	.
8G 8GG\	.	.	.	.	.	8G/J	.	.	.	.	.	.	.	.
.	12ccc# 12gg\	.	.	.	.	.	.	.	.	.	.	.	.	.
8F# 8FF#\	12ddd 12aa\	.	4AA/	-ga	.	8F#/L	-ga	.	4a/	-ga	.	4dd\	-ga	.
.	12dd\	.	.	.	.	.	.	.	.	.	.	.	.	.
8GJ 8GG\	.	.	.	.	.	8G/J	.	.	.	.	.	.	.	.
.	12bb\J	.	.	.	.	.	.	.	.	.	.	.	.	.
=90	=90	=90	=90	=90	=90	=90	=90	=90	=90	=90	=90	=90	=90	=90
2A 2AA\	8aaL 8cc#\	f	4.A\	gdy	.	4.A/	gdy	.	4.a/	gdy	.	4.a\	gdy	.
.	8a\	.	.	.	.	.	.	.	.	.	.	.	.	.
.	8a\	.	.	.	.	.	.	.	.	.	.	.	.	.
.	8a\J	.	8E\	nie-	.	8A/	nie-	.	8a/	nie-	.	8cc#\	nie-	.
8AAL 8AAA/	8aL 8A/	.	4C#/	-bio-	.	4A/	-bio-	.	4a/	-bio-	.	4ee\	-bio-	.
8AA 8AAA/	8a 8A/	.	.	.	.	.	.	.	.	.	.	.	.	.
8AA 8AAA/	8a 8A/	.	4AA/	-sa	.	4e\	-sa	.	4cc#\	-sa	.	4aa\	-sa	.
8AAJ 8AAA/	8aJ 8A/	.	.	.	.	.	.	.	.	.	.	.	.	.
=91	=91	=91	=91	=91	=91	=91	=91	=91	=91	=91	=91	=91	=91	=91
!	!LO:TX:a:t=ORGAN.	!	!	!	!	!	!	!	!	!	!	!	!	!
4D 4AA 4FF# 4DD/	4a 4f# 4d/	ff	2D\	stwa-	.	2d\	stwa-	.	2dd\	stwa-	.	2ff#\	stwa-	.
4D 4AA 4FF# 4DD/	4dd 4a 4f# 4d/	.	.	.	.	.	.	.	.	.	.	.	.	.
4D 4AA 4FF# 4DD/	4dd 4a 4f# 4d/	.	4D\	-rzał!	.	4d\	-rzał!	.	4dd\	-rzał!	.	4dd\	-rzał!	.
4D 4AA 4FF# 4DD/	4dd 4a 4f# 4d/	.	4r	.	.	4r	.	.	4r	.	.	4r	.	.
!!LO:PB:g=original
=92	=92	=92	=92	=92	=92	=92	=92	=92	=92	=92	=92	=92	=92	=92
*^	*	*	*	*	*	*	*	*	*	*	*	*	*	*
4D 4AA 4FF# 4DD/	4ryy	4dd 4a 4f# 4d/	.	1r	.	.	1r	.	.	1r	.	.	1r	.	.
8E/L	4AA 4DD\	8.cc#L 8.a 8.e 8.c#/	.	.	.	.	.	.	.	.	.	.	.	.	.
8D/J	.	.	.	.	.	.	.	.	.	.	.	.	.	.	.
.	.	16ddJk 16a 16f# 16d/	.	.	.	.	.	.	.	.	.	.	.	.	.
([2AA 2EE (2CC# (2AAA/	2ryy	(2ee (2cc# (<2a (2e/	.	.	.	.	.	.	.	.	.	.	.	.	.
*v	*v	*	*	*	*	*	*	*	*	*	*	*	*	*	*
=93	=93	=93	=93	=93	=93	=93	=93	=93	=93	=93	=93	=93	=93	=93
1D) 1AA] 1FF#) 1DD)	1dd) 1a) 1f#) 1d)	.	1r	.	.	1r	.	.	1r	.	.	1r	.	.
=94	=94	=94	=94	=94	=94	=94	=94	=94	=94	=94	=94	=94	=94	=94
4D 4AA 4FF# 4DD/	4a 4f# 4d/	.	1r	.	.	1r	.	.	1r	.	.	1r	.	.
4D 4AA 4FF# 4DD/	4dd 4a 4f# 4d/	.	.	.	.	.	.	.	.	.	.	.	.	.
4D 4AA 4FF# 4DD/	4dd 4a 4f# 4d/	.	.	.	.	.	.	.	.	.	.	.	.	.
4D 4AA 4FF# 4DD/	4dd 4a 4f# 4d/	.	.	.	.	.	.	.	.	.	.	.	.	.
=95	=95	=95	=95	=95	=95	=95	=95	=95	=95	=95	=95	=95	=95	=95
*	*^	*	*	*	*	*	*	*	*	*	*	*	*	*
4D 4DD/	4dd 4a 4f# 4d/	2ryy	.	1r	.	.	1r	.	.	1r	.	.	1r	.	.
4E 4EE/	8cc#L 8a 8e/	.	<	.	.	.	.	.	.	.	.	.	.	.	.
.	8bJ 8g#X 8e/	.	.	.	.	.	.	.	.	.	.	.	.	.	.
2E 2EE/	(2b (>2g#/	4.e\	[ >	.	.	.	.	.	.	.	.	.	.	.	.
.	.	8d\	]	.	.	.	.	.	.	.	.	.	.	.	.
*	*v	*v	*	*	*	*	*	*	*	*	*	*	*	*	*
=96	=96	=96	=96	=96	=96	=96	=96	=96	=96	=96	=96	=96	=96	=96
2.AA 2.AAA/	2.a) 2.e) 2.c# 2.A/	.	1r	.	.	1r	.	.	1r	.	.	1r	.	.
4A 4AA\	4aa 4cc# 4a\	.	.	.	.	.	.	.	.	.	.	.	.	.
!!LO:LB:g=original
=97	=97	=97	=97	=97	=97	=97	=97	=97	=97	=97	=97	=97	=97	=97
4G 4GG\	4bb 4gg 4dd 4b\	ff	1r	.	.	1r	.	.	1r	.	.	1r	.	.
4G 4GG\	4bb 4gg 4dd 4b\	.	.	.	.	.	.	.	.	.	.	.	.	.
4G 4GG\	4bb 4gg 4dd 4b\	.	.	.	.	.	.	.	.	.	.	.	.	.
4G 4GG\	4bb 4gg 4dd 4b\	.	.	.	.	.	.	.	.	.	.	.	.	.
=98	=98	=98	=98	=98	=98	=98	=98	=98	=98	=98	=98	=98	=98	=98
*	*^	*	*	*	*	*	*	*	*	*	*	*	*	*
4G 4GG/	4bb 4gg 4dd 4b\	2.ryy	.	1r	.	.	1r	.	.	1r	.	.	1r	.	.
4F# 4FF#/	4ddd 4aa 4dd\	.	.	.	.	.	.	.	.	.	.	.	.	.	.
4E 4EE/	4ddd 4gg 4dd\	.	.	.	.	.	.	.	.	.	.	.	.	.	.
4A 4AA/	8ccc#/L	4ee 4cc#\	.	.	.	.	.	.	.	.	.	.	.	.	.
.	8ddd/J	.	.	.	.	.	.	.	.	.	.	.	.	.	.
*	*v	*v	*	*	*	*	*	*	*	*	*	*	*	*	*
=99	=99	=99	=99	=99	=99	=99	=99	=99	=99	=99	=99	=99	=99	=99
4A 4AA/	4ccc# 4ee 4cc#\	.	1r	.	.	1r	.	.	1r	.	.	1r	.	.
4A 4AA/	4ccc# 4ee 4cc#\	.	.	.	.	.	.	.	.	.	.	.	.	.
8AL 8AA/	4ccc# 4ee 4cc#\	.	.	.	.	.	.	.	.	.	.	.	.	.
8G 8GG/	.	.	.	.	.	.	.	.	.	.	.	.	.	.
8F# 8FF#/	4ddd 4dd\	.	.	.	.	.	.	.	.	.	.	.	.	.
8GJ 8GG/	.	.	.	.	.	.	.	.	.	.	.	.	.	.
=100	=100	=100	=100	=100	=100	=100	=100	=100	=100	=100	=100	=100	=100	=100
2.A 2.AA/	2.aa 2.cc# 2.a\	.	1r	.	.	1r	.	.	1r	.	.	1r	.	.
4F# 4FF#^>/	4ddd 4aa 4dd^>\	.	.	.	.	.	.	.	.	.	.	.	.	.
=101	=101	=101	=101	=101	=101	=101	=101	=101	=101	=101	=101	=101	=101	=101
*	*^	*	*	*	*	*	*	*	*	*	*	*	*	*
4E 4EE/	4ddd 4gg 4dd\	4ryy	.	1r	.	.	1r	.	.	1r	.	.	1r	.	.
4A 4AA/	8ccc#/L	4ee 4cc#\	.	.	.	.	.	.	.	.	.	.	.	.	.
.	8bb/J	.	.	.	.	.	.	.	.	.	.	.	.	.	.
4A 4AA/	4ccc#/	4ff# 4cc#\	.	.	.	.	.	.	.	.	.	.	.	.	.
4A 4AA/	4ccc#/	4ff# 4cc#\	.	.	.	.	.	.	.	.	.	.	.	.	.
!!LO:LB:g=original
=102	=102	=102	=102	=102	=102	=102	=102	=102	=102	=102	=102	=102	=102	=102	=102
8AL 8AA\	4ccc#/	4ee 4cc#\	.	1r	.	.	1r	.	.	1r	.	.	1r	.	.
8GJ 8GG\	.	.	.	.	.	.	.	.	.	.	.	.	.	.	.
4F# 4FF#\	8ccc#L [8aa#X 8ff#/	4ee\	.	.	.	.	.	.	.	.	.	.	.	.	.
.	8dddJ 8aa#/]	.	.	.	.	.	.	.	.	.	.	.	.	.	.
4.B 4.BB;\	4bb;/	4dd 4b\	.	.	.	.	.	.	.	.	.	.	.	.	.
.	8aan/L	4ryy	.	.	.	.	.	.	.	.	.	.	.	.	.
8c# 8C#\	8gg/J	.	.	.	.	.	.	.	.	.	.	.	.	.	.
*	*v	*v	*	*	*	*	*	*	*	*	*	*	*	*	*
=103	=103	=103	=103	=103	=103	=103	=103	=103	=103	=103	=103	=103	=103	=103
2d 2D\	8ff#L 8dd\	.	1r	.	.	1r	.	.	1r	.	.	1r	.	.
.	(8aa 8ff#\	.	.	.	.	.	.	.	.	.	.	.	.	.
.	8gg 8ee\	.	.	.	.	.	.	.	.	.	.	.	.	.
!	!LO:TX:b:t=rall.	!	!	!	!	!	!	!	!	!	!	!	!	!
.	8ff#J 8dd\	.	.	.	.	.	.	.	.	.	.	.	.	.
2D\	8eeL 8cc#\	.	.	.	.	.	.	.	.	.	.	.	.	.
.	8dd 8b\	.	.	.	.	.	.	.	.	.	.	.	.	.
.	8cc# 8a\	.	.	.	.	.	.	.	.	.	.	.	.	.
.	8bJ 8g\)	.	.	.	.	.	.	.	.	.	.	.	.	.
=104	=104	=104	=104	=104	=104	=104	=104	=104	=104	=104	=104	=104	=104	=104
!	!LO:TX:b:t=a tempo.	!	!	!	!	!	!	!	!	!	!	!	!	!
4D 4DD/	4a 4f# 4d/	.	1r	.	.	1r	.	.	1r	.	.	1r	.	.
4D 4DD/	4dd 4a 4f# 4d/	.	.	.	.	.	.	.	.	.	.	.	.	.
4D 4DD/	4dd 4a 4f# 4d/	.	.	.	.	.	.	.	.	.	.	.	.	.
4D 4DD/	4dd 4a 4f# 4d/	.	.	.	.	.	.	.	.	.	.	.	.	.
=105	=105	=105	=105	=105	=105	=105	=105	=105	=105	=105	=105	=105	=105	=105
*^	*	*	*	*	*	*	*	*	*	*	*	*	*	*
4D 4DD/	4ryy	4dd 4a 4f# 4d/	.	1r	.	.	1r	.	.	1r	.	.	1r	.	.
8E/L	4AA 4DD\	8cc#L 8a 8g 8c#/	.	.	.	.	.	.	.	.	.	.	.	.	.
8D/J	.	8ddJ 8a 8f# 8d/	.	.	.	.	.	.	.	.	.	.	.	.	.
(2AA (2AAA^>/	2ryy	(2ee (2cc# (<2a (2e^>/	.	.	.	.	.	.	.	.	.	.	.	.	.
*v	*v	*	*	*	*	*	*	*	*	*	*	*	*	*	*
=106	=106	=106	=106	=106	=106	=106	=106	=106	=106	=106	=106	=106	=106	=106
1D) 1AA 1FF# 1DD)	1dd) 1a) 1f#) 1d)	.	1r	.	.	1r	.	.	1r	.	.	1r	.	.
!!LO:LB:g=original
=107	=107	=107	=107	=107	=107	=107	=107	=107	=107	=107	=107	=107	=107	=107
4D 4AA 4FF# 4DD/	4a 4f# 4d/	.	1r	.	.	1r	.	.	1r	.	.	1r	.	.
4D 4AA 4FF# 4DD/	4dd 4a 4f# 4d/	.	.	.	.	.	.	.	.	.	.	.	.	.
4D 4AA 4FF# 4DD/	4dd 4a 4f# 4d/	.	.	.	.	.	.	.	.	.	.	.	.	.
8DL 8DD/	4dd 4f# 4d/	.	.	.	.	.	.	.	.	.	.	.	.	.
8C#J 8CC#/	.	.	.	.	.	.	.	.	.	.	.	.	.	.
=108	=108	=108	=108	=108	=108	=108	=108	=108	=108	=108	=108	=108	=108	=108
*	*^	*	*	*	*	*	*	*	*	*	*	*	*	*
8BBL 8BBB/	4dd 4f# 4d/	4ryy	.	1r	.	.	1r	.	.	1r	.	.	1r	.	.
8AAJ 8AAA/	.	.	.	.	.	.	.	.	.	.	.	.	.	.	.
8GGL 8GGG/	2dd/	8e\L	.	.	.	.	.	.	.	.	.	.	.	.	.
8FF#J 8FFF#/	.	8f#\J	.	.	.	.	.	.	.	.	.	.	.	.	.
4EE 4EEE/	.	4g\	.	.	.	.	.	.	.	.	.	.	.	.	.
8FF#L 8FFF#/	4dd/	8f#\L	.	.	.	.	.	.	.	.	.	.	.	.	.
8GGJ 8GGG/	.	8e\J	.	.	.	.	.	.	.	.	.	.	.	.	.
*	*v	*v	*	*	*	*	*	*	*	*	*	*	*	*	*
=109	=109	=109	=109	=109	=109	=109	=109	=109	=109	=109	=109	=109	=109	=109
2A 2GG\	(2.cc# 2.a (2.e/	sf	1r	.	.	1r	.	.	1r	.	.	1r	.	.
2AA 2AAA/	.	.	.	.	.	.	.	.	.	.	.	.	.	.
.	4gn/	.	.	.	.	.	.	.	.	.	.	.	.	.
=110	=110	=110	=110	=110	=110	=110	=110	=110	=110	=110	=110	=110	=110	=110
!	!	!	!	!	!	!	!	!LO:DY:a	!	!	!	!	!	!
4D 4DD/	4dd) 4f# 4d/)	.	1r	.	.	4d\	O	f	1r	.	.	1r	.	.
4r	4r	.	.	.	.	(8.e\L	Pol-	.	.	.	.	.	.	.
.	.	.	.	.	.	16c#\Jk)	.	.	.	.	.	.	.	.
2r	2r	.	.	.	.	2A/	-sko	.	.	.	.	.	.	.
=111	=111	=111	=111	=111	=111	=111	=111	=111	=111	=111	=111	=111	=111	=111
!	!	!	!	!	!	!	!	!	!	!	!LO:DY:a	!	!	!
2r	4f# 4d/	f	1r	.	.	4d\	o	.	4f#/	O	f	1r	.	.
.	8.gL 8.e/	.	.	.	.	(8.e\L	Pol-	.	(8.g/L	Pol-	.	.	.	.
.	16eJk 16c#/	.	.	.	.	16c#\Jk)	.	.	16e/Jk)	.	.	.	.	.
*tuplet	*	*	*	*	*	*	*	*	*	*	*	*	*	*
!LO:TUP:a	!	!	!	!	!	!	!	!	!	!	!	!	!	!
12A\L	2a/	.	.	.	.	2A/	-sko	.	2c#/	-sko	.	.	.	.
12c#\	.	.	.	.	.	.	.	.	.	.	.	.	.	.
12d\J	.	.	.	.	.	.	.	.	.	.	.	.	.	.
!LO:TUP:a	!	!	!	!	!	!	!	!	!	!	!	!	!	!
12e\L	.	.	.	.	.	.	.	.	.	.	.	.	.	.
12f#\	.	.	.	.	.	.	.	.	.	.	.	.	.	.
12g\J	.	.	.	.	.	.	.	.	.	.	.	.	.	.
!!LO:PB:g=original
=112	=112	=112	=112	=112	=112	=112	=112	=112	=112	=112	=112	=112	=112	=112
2.d^>\	4a 4f#/	.	1r	.	.	2.d\	ciesz	.	4f#/	O	.	4a\	O	.
.	8.bL 8.g/	<	.	.	.	.	.	.	8.g/	Pol-	.	8.b\	Pol-	.
.	16aJk 16f#/	.	.	.	.	.	.	.	16f#/	-sko	.	16a\	-sko	.
.	4cc# 4e/	.	.	.	.	.	.	.	4e/	ciesz	.	4cc#\	ciesz	.
4d 4D\	4dd 4f#/	[[	.	.	.	4d\	się	.	4f#/	się	.	4dd\	się	.
=113	=113	=113	=113	=113	=113	=113	=113	=113	=113	=113	=113	=113	=113	=113
2A 2AA\	4ee 4a\	f	4A\	zni-	.	4A/	zni-	.	4a\	zni-	.	4ee\	zni-	.
.	4ff# 4dd\	<	4A\	-knie	.	4A/	-knie	.	4dd\	-knie	.	4ff#\	-knie	.
4.A 4.AA\	8ggL 8ee\	.	4.A\	twój	.	4.A/	twój	.	(8ee\L	twój	.	(8gg\L	twój	.
.	8ee 8cc#\	.	.	.	.	.	.	.	8cc#\	.	.	8ee\	.	.
.	8ff# 8dd\	.	.	.	.	.	.	.	8dd\J)	.	.	8ff#\J)	.	.
8A 8AA\	8ggJ 8ee\	[[	8A\	mor-	.	8A/	mor-	.	8ee\	mor-	.	8gg\	mor-	.
=114	=114	=114	=114	=114	=114	=114	=114	=114	=114	=114	=114	=114	=114	=114
*^	*^	*	*	*	*	*	*	*	*	*	*	*	*	*
!	!	!	!	!	!	!	!LO:DY:a	!	!	!LO:DY:a	!	!	!LO:DY:a	!	!	!LO:DY:a
4d/	2D\	16aaLL 16ff#\	2ryy	f	2D\	-der-	f	(4d\	-der-	f	(4ff#\	-der-	f	2aa\	-der-	f
.	.	16a\	.	.	.	.	.	.	.	.	.	.	.	.	.	.
.	.	16aa 16ff#\	.	.	.	.	.	.	.	.	.	.	.	.	.	.
.	.	16a\JJ	.	.	.	.	.	.	.	.	.	.	.	.	.	.
8e/L	.	16aaLL 16ee\	.	.	.	.	.	8e\L	.	.	8ee\L	.	.	.	.	.
.	.	16a\	.	.	.	.	.	.	.	.	.	.	.	.	.	.
8f#/J	.	16aa 16dd\	.	.	.	.	.	8f#\J)	.	.	8dd\J)	.	.	.	.	.
.	.	16a\JJ	.	.	.	.	.	.	.	.	.	.	.	.	.	.
*	*	*tremolo	*	*	*	*	*	*	*	*	*	*	*	*	*	*
2g/	2A\	16aa/LL	2cc#\	.	4.A\	-ca,	.	2g\	-ca,	.	2cc#\	-ca,	.	4.aa\	-ca,	.
.	.	16a/	.	.	.	.	.	.	.	.	.	.	.	.	.	.
.	.	16aa/	.	.	.	.	.	.	.	.	.	.	.	.	.	.
.	.	16a/	.	.	.	.	.	.	.	.	.	.	.	.	.	.
.	.	16aa/	.	.	.	.	.	.	.	.	.	.	.	.	.	.
.	.	16a/	.	.	.	.	.	.	.	.	.	.	.	.	.	.
.	.	16aa/	.	.	8A\	mę-	.	.	.	.	.	.	.	8aa\	mę-	.
.	.	16a/JJ	.	.	.	.	.	.	.	.	.	.	.	.	.	.
=115	=115	=115	=115	=115	=115	=115	=115	=115	=115	=115	=115	=115	=115	=115	=115	=115
4f#/	2D\	16aa/LL	4dd\	.	1A	-czeńs-	.	4f#\	mę-	.	4dd\	mę-	.	2aa\	-czeńs-	.
.	.	16a/	.	.	.	.	.	.	.	.	.	.	.	.	.	.
.	.	16aa/	.	.	.	.	.	.	.	.	.	.	.	.	.	.
.	.	16a/	.	.	.	.	.	.	.	.	.	.	.	.	.	.
8e/L	.	16aa/	8ee\L	.	.	.	.	8e\	-czeń-	.	8ee\	-czeń-	.	.	.	.
.	.	16a/	.	.	.	.	.	.	.	.	.	.	.	.	.	.
8d/J	.	16aa/	8ff#\J	.	.	.	.	8d\	-stwem	.	8ff#\	-stwem	.	.	.	.
.	.	16a/JJ	.	.	.	.	.	.	.	.	.	.	.	.	.	.
2c#/	2A\	16aa/LL	2a\	.	.	.	.	2c#\	Woj-	.	2a/	Woj-	.	4.aa\	-twem	.
.	.	16a/	.	.	.	.	.	.	.	.	.	.	.	.	.	.
.	.	16aa/	.	.	.	.	.	.	.	.	.	.	.	.	.	.
.	.	16a/	.	.	.	.	.	.	.	.	.	.	.	.	.	.
.	.	16aa/	.	.	.	.	.	.	.	.	.	.	.	.	.	.
.	.	16a/	.	.	.	.	.	.	.	.	.	.	.	.	.	.
.	.	16aa/	.	.	.	.	.	.	.	.	.	.	.	8aa\	mę-	.
.	.	16a/JJ	.	.	.	.	.	.	.	.	.	.	.	.	.	.
*	*	*Xtremolo	*	*	*	*	*	*	*	*	*	*	*	*	*	*
*	*	*v	*v	*	*	*	*	*	*	*	*	*	*	*	*	*
!!LO:LB:g=original
=116	=116	=116	=116	=116	=116	=116	=116	=116	=116	=116	=116	=116	=116	=116	=116
4B/	2A\	4aa 4dd#X 4b\	sf	1A	-stwem	.	4d#X\	-ciech	.	2b\	-ciech	.	(4aa\	-czeń-	.
*	*	*tuplet	*	*	*	*	*	*	*	*	*	*	*	*	*
!	!	!LO:TUP:a	!	!	!	!	!	!	!	!	!	!	!	!	!
2e/	.	12ggL 12cc# 12a\	.	.	.	.	4e\	zdo-	.	.	.	.	2gg\)	.	.
.	.	12gg 12cc# 12a\	.	.	.	.	.	.	.	.	.	.	.	.	.
.	.	12ggJ 12cc# 12a\	.	.	.	.	.	.	.	.	.	.	.	.	.
.	2A\	4gg 4cc# 4a\	.	.	.	.	4c#\	-był	.	4.a/	zdo-	.	.	.	.
!	!	!LO:TUP:a	!	!	!	!	!	!	!	!	!	!	!	!	!
4d/	.	12ff#L 12ddn 12a\	.	.	.	.	8dn\	ci	.	.	.	.	4ff#\	-stwem	.
.	.	12ff# 12dd 12a\	.	.	.	.	.	.	.	.	.	.	.	.	.
!	!	!	!	!	!	!	!	!	!	!LO:N:vis=4	!	!	!	!	!
.	.	.	.	.	.	.	8d\	zba-	.	8a/	-był	.	.	.	.
.	.	12ff#J 12dd 12a\	.	.	.	.	.	.	.	.	.	.	.	.	.
=117	=117	=117	=117	=117	=117	=117	=117	=117	=117	=117	=117	=117	=117	=117	=117
4ryy	2A\	4ff# 4b 4g\	.	2.A\	Woj-	.	(4B\	-wie-	.	2g/	Woj-	.	(4ff#\	Woj-	.
!	!	!LO:TUP:a	!	!	!	!	!	!	!	!	!	!	!	!	!
2e/	.	12eeL 12cc# 12g\	.	.	.	.	4c#\	.	.	.	.	.	2ee\)	.	.
!	!	!	!LO:HP:b:t=decres.	!	!	!	!	!	!	!	!	!	!	!	!
.	.	12ee 12cc# 12g\	>	.	.	.	.	.	.	.	.	.	.	.	.
.	.	12eeJ 12cc# 12g\	.	.	.	.	.	.	.	.	.	.	.	.	.
.	2A\	4ee 4cc# 4g\	.	.	.	.	4A\)	.	.	2f#/	-ciech	.	.	.	.
!	!	!LO:TUP:a	!	!	!	!	!	!	!	!	!	!	!	!	!
4d/	.	12ddL 12a 12f#\	.	4D\	-ciech	.	4d\	-nie	.	.	.	.	4dd\	-ciech	.
.	.	12dd 12a 12f#\	.	.	.	.	.	.	.	.	.	.	.	.	.
.	.	12ddJ 12a 12f#\	.	.	.	.	.	.	.	.	.	.	.	.	.
=118	=118	=118	=118	=118	=118	=118	=118	=118	=118	=118	=118	=118	=118	=118	=118
*	*	*^	*	*	*	*	*	*	*	*	*	*	*	*	*
4A\	4ryy	4dd/	4g 4e\	>	4AA/	zdo-	.	4A/	zdo-	.	4.e/	zdo-	.	(4dd\	zdo-	.
4A/	4AA\	8cc#/L	4g 4e\	]	4AA/	-był	.	4A/	-był	.	.	.	.	8cc#\)	.	.
.	.	8b/J	.	.	.	.	.	.	.	.	8e/	-był	.	8b\	-był	.
8A/L	4AA\	4cc#/	4g 4e\	.	4AA/	ci	.	(8A/L	ci	.	4e/	ci	.	4cc#\	ci	.
8G/J	.	.	.	.	.	.	.	8G/J)	.	.	.	.	.	.	.	.
4F#/	4D\	4dd/	4a 4e\	.	4D/	zba-	.	4F#/	zba-	.	4d/	zba-	.	4dd\	zba-	.
*v	*v	*	*	*	*	*	*	*	*	*	*	*	*	*	*	*
=119	=119	=119	=119	=119	=119	=119	=119	=119	=119	=119	=119	=119	=119	=119	=119
4A^> 4AA\	4ee/	4cc# 4g\	.	4AA/	-wie-	.	4c#\	-wie-	.	4a/	-wie-	.	(8.ee\L	-wie-	.
.	.	.	.	.	.	.	.	.	.	.	.	.	16ff#\Jk)	.	.
4D^>\	4dd/	4a 4f#\	.	4D\	-nie;	.	4d\	-nie;	.	4f#/	-nie;	.	4dd\	-nie;	.
!	!LO:N:vis=8	!	!	!	!	!	!	!	!	!	!	!	!	!	!
4r	4r	2ryy	.	4r	.	.	4r	.	.	4r	.	.	4r	.	.
.	.	.	sf	.	.	.	.	.	.	.	.	.	.	.	.
!	!LO:TUP:b	!	!	!	!	!	!	!	!	!	!	!	!	!	!
4F# 4FF#\	12ddL 12a 12d/	.	.	4F#^>\	niech	.	4d^>\	niech	.	4a^>/	niech	.	4dd^>\	niech	.
.	12dd 12a 12d/	.	.	.	.	.	.	.	.	.	.	.	.	.	.
.	12ddJ 12a 12d/	.	.	.	.	.	.	.	.	.	.	.	.	.	.
!!LO:LB:g=original
=120	=120	=120	=120	=120	=120	=120	=120	=120	=120	=120	=120	=120	=120	=120	=120
*^	*	*	*	*	*	*	*	*	*	*	*	*	*	*	*
4E 4EE\	4ryy	4dd/	4g 4e\	.	4E\	je-	.	4A/	je-	.	4.a/	je-	.	(4dd\	je-	.
4A/	4AA\	8cc#/L	4g 4e\	sf	4AA/	-go	.	4A/	-go	.	.	.	.	8cc#\)	.	.
.	.	8b/J	.	.	.	.	.	.	.	.	8g/	-go	.	8b\	-go	.
8A/L	4AA\	4cc#/	4g 4e\	.	4AA/	duch	.	(8A/L	duch	.	4a/	duch	.	4cc#\	duch	.
8G/J	.	.	.	.	.	.	.	8G/J)	.	.	.	.	.	.	.	.
4F#/	4D\	4dd/	4a 4d\	.	4D\	szle	.	4F#/	szle	.	4d/	szle	.	4dd\	szle	.
*v	*v	*	*	*	*	*	*	*	*	*	*	*	*	*	*	*
*	*v	*v	*	*	*	*	*	*	*	*	*	*	*	*	*
=121	=121	=121	=121	=121	=121	=121	=121	=121	=121	=121	=121	=121	=121	=121
8BL 8BB\	4dd#X 4b 4f#\	.	(8B\L	w na-	.	4f#\	w na-	.	4b\	w na-	.	4dd#X\	w na-	.
8AJ 8AA\	.	.	8A\J)	.	.	.	.	.	.	.	.	.	.	.
4G 4GG^>\	4ee 4b 4e\	.	4G\	-sze	.	4e\	-sze	.	4b\	-sze	.	4ee\	-sze	.
8c#L 8C#\	4ee#X 4cc# 4g#X\	.	8c#\L	ser-	.	4c#\	ser-	.	4g#X/	ser-	.	4ee#X\	ser-	.
8BJ 8BB\	.	.	8B\J	.	.	.	.	.	.	.	.	.	.	.
4A 4AA^>\	4ff# 4cc# 4f#\	.	8A\	-ca	.	8c#\	-ca	.	8f#/	-ca	.	8ff#\	-ca	.
.	.	.	8A\	swo-	.	8c#\	swo-	.	8f#/	swo-	.	8ff#\	swo-	.
=122	=122	=122	=122	=122	=122	=122	=122	=122	=122	=122	=122	=122	=122	=122
!	!	!	!	!	!LO:DY:a	!	!	!LO:DY:a	!	!	!LO:DY:a	!	!	!LO:DY:a
[2e [2A [2E\	[2gg [2cc# [2gn\	.	2E\	-bo-	f	2c#\	-bo-	f	2e/	-bo-	f	2gg\	-bo-	f
8e]L 8A] 8E\]	8gg]L 8cc#] 8g\]	.	8E\	-dy	.	8c#\	-dy	.	8e/	-dy	.	8gg\	-dy	.
8e 8A 8E\	8cc# 8g\	.	8A\	wiecz-	.	8e\	wiecz-	.	8a/	wiecz-	.	8cc#\	wie-	.
8e 8A 8E\	8cc# 8g\	.	8A\	-néj	.	8e\	-néj	.	8a/	-néj	.	8cc#\	-czéj	.
8eJ 8A 8E\	8cc#J 8g\	.	8A\	nat-	.	8e\	nat-	.	8a/	nat-	.	8cc#\	nat-	.
=123	=123	=123	=123	=123	=123	=123	=123	=123	=123	=123	=123	=123	=123	=123
(4A\	(4ee 4cc# 4a 4g\	.	(4A\	-chnie-	.	(4c#\	-chnie-	.	(8a/L	-chnie-	.	(4ee\	-chnie-	.
.	.	.	.	.	.	.	.	.	8gn/J	.	.	.	.	.
4d 4D\)	4dd 4a 4f#/)	.	4D\)	-nie	.	4d\)	-nie	.	4f#/)	-nie	.	4dd\)	-nie	.
4r	4r	.	4r	.	.	4r	.	.	4r	.	.	4r	.	.
4G 4GG\	4ee 4b 4e\	sf	4G\	swo-	.	4e\	swo-	.	4b\	swo-	.	4ee\	swo-	.
!!LO:PB:g=original
=124	=124	=124	=124	=124	=124	=124	=124	=124	=124	=124	=124	=124	=124	=124
*^	*^	*	*	*	*	*	*	*	*	*	*	*	*	*
!	!	!	!	!LO:HP:t=cres-cen-do.:ext2=cd	!	!	!	!	!	!	!	!	!	!	!	!
2A 2AA\	2ryy	4dd/	8aL 8f#\	<	1A	-bo-	.	(2f#\	-bo-	.	(2.a/	-bo-	.	(2dd\	-bo-	.
.	.	.	8a 8f#\	.	.	.	.	.	.	.	.	.	.	.	.	.
.	.	2.ryy	8b 8g\	.	.	.	.	.	.	.	.	.	.	.	.	.
.	.	.	8cc#J 8a\	.	.	.	.	.	.	.	.	.	.	.	.	.
8A/L	2A\	.	8ddL 8b\	.	.	.	.	2e\)	.	.	.	.	.	2cc#\)	.	.
8g/	.	.	8ee 8cc#\	.	.	.	.	.	.	.	.	.	.	.	.	.
8f#/	.	.	8ff# 8dd\	.	.	.	.	.	.	.	4g/)	.	.	.	.	.
8e/J	.	.	8ggJ 8ee\	.	.	.	.	.	.	.	.	.	.	.	.	.
*v	*v	*	*	*	*	*	*	*	*	*	*	*	*	*	*	*
*	*v	*v	*	*	*	*	*	*	*	*	*	*	*	*	*
=125	=125	=125	=125	=125	=125	=125	=125	=125	=125	=125	=125	=125	=125	=125
8d\L	(8aaL 8ff#\	.	4D\	-dy	.	4d\	-dy	.	4f#/	-dy	.	4dd\	-dy	.
(8D\	8f#\	.	.	.	.	.	.	.	.	.	.	.	.	.
8E\	8g\	.	4r	.	.	4r	.	.	4r	.	.	4r	.	.
8F#\J	8a\J	.	.	.	.	.	.	.	.	.	.	.	.	.
8G\L	8b\L	.	2r	.	.	2r	.	.	2r	.	.	2r	.	.
8A\	8cc#\	.	.	.	.	.	.	.	.	.	.	.	.	.
8B\	8dd\	.	.	.	.	.	.	.	.	.	.	.	.	.
8c#\J)	8ee\J)	.	.	.	.	.	.	.	.	.	.	.	.	.
=126	=126	=126	=126	=126	=126	=126	=126	=126	=126	=126	=126	=126	=126	=126
!	!	!	!	!	!LO:DY:a	!	!	!LO:DY:a	!	!	!LO:DY:a	!	!	!LO:DY:a
2A 2AA\	8aaL 8ee 8dd 8a\	sf	2A\	wiecz-	f	2d\	wiecz-	f	2a/	wiecz-	f	2ee\	wiecz-	f
.	8aa 8ee 8dd 8a\	.	.	.	.	.	.	.	.	.	.	.	.	.
.	8aa 8ee 8dd 8a\	.	.	.	.	.	.	.	.	.	.	.	.	.
.	8aaJ 8ee 8dd 8a\	.	.	.	.	.	.	.	.	.	.	.	.	.
4A 4AA\	8aaL 8cc# 8a\	.	4A\	-néj	.	4c#\	-néj	.	4a/	-néj	.	4ee\	-néj	.
.	8aa 8a\	.	.	.	.	.	.	.	.	.	.	.	.	.
4A 4AA\	8aa 8b 8a\	.	4A\	swo-	.	4B\	swo-	.	4a/	swo-	.	4ee\	swo-	.
.	8aaJ 8a\	.	.	.	.	.	.	.	.	.	.	.	.	.
=127	=127	=127	=127	=127	=127	=127	=127	=127	=127	=127	=127	=127	=127	=127
(2A 2D\	8aaL 8a\	.	2D\	-bo-	.	2d\	-bo-	.	2a/	-bo-	.	2ff#\	-bo-	.
.	8aa 8ff# 8a\	.	.	.	.	.	.	.	.	.	.	.	.	.
.	8aa 8ee 8a\	.	.	.	.	.	.	.	.	.	.	.	.	.
.	8aaJ 8dd 8a\	.	.	.	.	.	.	.	.	.	.	.	.	.
4F# 4D\)	8aaL 8dd 8a\	.	4D\	-dy	.	4d\	-dy	.	4f#/	-dy	.	4dd\	-dy	.
.	8ff# 8a\	.	.	.	.	.	.	.	.	.	.	.	.	.
4D 4DD^>/	8ff# 8a\	.	8r	.	.	8r	.	.	8r	.	.	8r	.	.
.	8ff#J 8a\	.	8d\	nat-	.	8d\	nat-	.	8a/	nat-	.	8ff#\	nat-	.
!!LO:LB:g=original
=128	=128	=128	=128	=128	=128	=128	=128	=128	=128	=128	=128	=128	=128	=128
4A 4AA\	4.ee 4.cc# 4.a\	.	4A\	-chnie-	.	(4.c#\	-chnie-	.	1a	-chnie-	.	(4.ee\	-chnie-	.
4A 4AA\	.	.	8A\	-nie	.	.	.	.	.	.	.	.	.	.
.	8ff# 8dd 8a\	.	8A\	nat-	.	8d\	.	.	.	.	.	8ff#\	.	.
4AA 4AAA/	8aaL 8ff# 8a\	.	2A\	-chnie-	.	8f#\L	.	.	.	.	.	8aa\L	.	.
.	8gg 8ee 8a\	.	.	.	.	8e\	.	.	.	.	.	8gg\	.	.
4AA 4AAA/	8ff# 8dd 8a\	.	.	.	.	8d\	.	.	.	.	.	8ff#\	.	.
.	8eeJ 8cc# 8a\	.	.	.	.	8c#\J)	.	.	.	.	.	8ee\J)	.	.
=129	=129	=129	=129	=129	=129	=129	=129	=129	=129	=129	=129	=129	=129	=129
*^	*^	*	*	*	*	*	*	*	*	*	*	*	*	*
4D 4DD/	4ryy	8.ddL 8.f#\	4ryy	.	2d\	-nie	.	2d\	-nie	.	2dd\	-nie	.	2dd\	-nie	.
.	.	16dd\Jk	.	.	.	.	.	.	.	.	.	.	.	.	.	.
*	*	*Xtuplet	*	*	*	*	*	*	*	*	*	*	*	*	*	*
4F# 4D\	4ryy	12dd/L	4a\	.	.	.	.	.	.	.	.	.	.	.	.	.
.	.	12cc#/	.	.	.	.	.	.	.	.	.	.	.	.	.	.
.	.	12dd/J	.	.	.	.	.	.	.	.	.	.	.	.	.	.
*Xtuplet	*	*	*	*	*	*	*	*	*	*	*	*	*	*	*	*
12F#/L	4D\	12dd/L	4a\	.	2r	.	.	2r	.	.	2r	.	.	2r	.	.
12E/	.	12cc#/	.	.	.	.	.	.	.	.	.	.	.	.	.	.
12F#/J	.	12dd/J	.	.	.	.	.	.	.	.	.	.	.	.	.	.
12F#/L	4D\	12dd/L	4a\	.	.	.	.	.	.	.	.	.	.	.	.	.
12E/	.	12cc#/	.	.	.	.	.	.	.	.	.	.	.	.	.	.
12F#/J	.	12dd/J	.	.	.	.	.	.	.	.	.	.	.	.	.	.
*v	*v	*	*	*	*	*	*	*	*	*	*	*	*	*	*	*
*	*v	*v	*	*	*	*	*	*	*	*	*	*	*	*	*
=130	=130	=130	=130	=130	=130	=130	=130	=130	=130	=130	=130	=130	=130	=130
!	!	!	!	!	!LO:DY:a	!	!	!LO:DY:a	!	!	!LO:DY:a	!	!	!LO:DY:a
4D 4DD/	8ff#L 8ccn 8a\	ff	2D\	wiecz-	ff	2d\	wiecz-	ff	2ccn 2a\	wiecz-	ff	2ff#\	wiecz-	ff
.	8ff# 8cc 8a\	.	.	.	.	.	.	.	.	.	.	.	.	.
4d 4D\	8ff# 8cc 8a\	.	.	.	.	.	.	.	.	.	.	.	.	.
.	8ff#J 8cc 8a\	.	.	.	.	.	.	.	.	.	.	.	.	.
4cn 4Cn\	8ff#L 8cc 8a\	.	4D\	-néj	.	4d\	-néj	.	4cc 4a\	-néj	.	4ff#\	-néj	.
.	8ff# 8cc 8a\	.	.	.	.	.	.	.	.	.	.	.	.	.
4A 4AA\	8ff# 8cc 8a\	.	4D\	wo-	.	4d\	swo-	.	4cc 4a\	swo-	.	4ff#\	swo-	.
.	8ff#J 8cc 8a\	.	.	.	.	.	.	.	.	.	.	.	.	.
!!LO:LB:g=original
=131	=131	=131	=131	=131	=131	=131	=131	=131	=131	=131	=131	=131	=131	=131
2G 2GG\	8ggL 8dd 8b\	.	2G\	-bo-	.	2d\	-bo-	.	2b\	-bo-	.	2gg\	-bo-	.
.	8gg 8dd 8b\	.	.	.	.	.	.	.	.	.	.	.	.	.
.	8gg 8dd 8b\	.	.	.	.	.	.	.	.	.	.	.	.	.
.	8ggJ 8dd 8b\	.	.	.	.	.	.	.	.	.	.	.	.	.
4G 4GG\	8ggL 8dd 8b\	.	4G\	-dy	.	4d\	-dy	.	4b\	-dy	.	4gg\	-dy	.
.	8gg 8dd 8b\	.	.	.	.	.	.	.	.	.	.	.	.	.
4G 4GG\	8gg 8dd 8b-X\	.	4G\	natch-	.	4d\	nat-	.	4b-X\	natch-	.	4gg\	natch-	.
.	8ggJ 8dd 8b-\	.	.	.	.	.	.	.	.	.	.	.	.	.
=132	=132	=132	=132	=132	=132	=132	=132	=132	=132	=132	=132	=132	=132	=132
4A 4AA\	8eeL 8dd 8a\	.	1A	-nie-	.	1c#	-chnie-	.	2.a/	-nie-	.	1ee	-nie-	.
.	8ee 8dd 8a\	.	.	.	.	.	.	.	.	.	.	.	.	.
4A 4AA\	8ee 8dd 8a\	.	.	.	.	.	.	.	.	.	.	.	.	.
.	8eeJ 8dd 8a\	.	.	.	.	.	.	.	.	.	.	.	.	.
4E 4EE/	8eeL 8dd 8a\	.	.	.	.	.	.	.	.	.	.	.	.	.
!	!LO:TX:b:t=rit.	!	!	!	!	!	!	!	!	!	!	!	!	!
.	8ee 8dd 8a\	.	.	.	.	.	.	.	.	.	.	.	.	.
4C# 4CC#/	8ee 8a\	.	.	.	.	.	.	.	8a/L	.	.	.	.	.
.	8eeJ 8a 8g\	.	.	.	.	.	.	.	8g/J	.	.	.	.	.
=133	=133	=133	=133	=133	=133	=133	=133	=133	=133	=133	=133	=133	=133	=133
!	!	!	!	!	!LO:DY:a	!	!	!LO:DY:a	!	!	!LO:DY:a	!	!	!LO:DY:a
!	!	!	!	!	!LO:DY:a	!	!	!LO:DY:a	!	!	!LO:DY:a	!	!	!LO:DY:a
8DL 8DD\	8ddL 8f#\	.	[1D;	-nie	.	[1d;	-nie	f > ]]	[1f#;	-nie	f > ]]	[1dd;	-nie	f > ]]
8d\	8a\	.	.	.	.	.	.	.	.	.	.	.	.	.
8A\	8f#\	.	.	.	.	.	.	.	.	.	.	.	.	.
8F#\J	8a\J	.	.	.	.	.	.	.	.	.	.	.	.	.
8D\L	8dd\L	.	.	.	.	.	.	.	.	.	.	.	.	.
8d 8D\	8dd 8f#\	.	.	.	.	.	.	.	.	.	.	.	.	.
8A 8AA\	8ff# 8f#\	.	.	.	.	.	.	.	.	.	.	.	.	.
8F#J 8FF#\	8aaJ 8a\	.	.	.	.	.	.	.	.	.	.	.	.	.
=134	=134	=134	=134	=134	=134	=134	=134	=134	=134	=134	=134	=134	=134	=134
2D 2DD;</	2ddd 2dd;\	ff	2D;\]	.	.	2d;\]	.	.	2f#;/]	.	.	2dd;\]	.	.
2D 2DD;<\	2d 2A< 2F#<;/	.	2r;	.	.	2r;	.	.	2r;	.	.	2r;	.	.
==	==	==	==	==	==	==	==	==	==	==	==	==	==	==
*-	*-	*-	*-	*-	*-	*-	*-	*-	*-	*-	*-	*-	*-	*-
!!!system-decoration: [(g1)]{(g2)}
!!!RDF**kern: > = above
!!!RDF**kern: < = below
!!!ENC: Berenika Jozajtis
!!!END: 2022-02-23
!!!ENC: Kamil Watkowski
!!!END: 2022-03-02
